!!!!SEGMENT: pl-cz--iii-459--004_kuci-mateusz--symfonia-g-presto.krn
!!!cenid: 17xx:236
!!!COM: Kuci, Mateusz
!!!COM-rismid: pe30017582
!!!CDT:
!!!CNT:
!!!OTL: Symfonia G - Presto
!!!PDT:
!!!AGN: Secular
!!!SMS-siglum: PL-CZ
!!!SMS-shelfmark: III-459
!!!SMS-shelfwork: 001-004 M
!!!NIFC-rismid:
!!!URL-scan: http://repozytorium.nifc.pl/skany/pl-cz-nut--iii-459
!!!ONB-nifc:
**kern	**kern	**dynam	**kern	**dynam	**kern	**dynam	**kern	**kern	**dynam	**kern	**dynam	**kern	**dynam	**kern	**dynam	**kern	**dynam
*part10	*part9	*part9	*part8	*part8	*part7	*part7	*part6	*part5	*	*part4	*part3	*part3	*part3	*part2	*part2	*part1	*part1
*staff10	*staff9	*	*staff8	*	*staff7	*	*staff6	*staff5	*	*staff4	*	*staff3	*	*staff2	*	*staff1	*
*I"Basso	*I"Viola	*	*I"Violino secondo	*	*I"Violino primo	*	*I"Cornu IIdo in G	*I"Cornu Imo in G	*	*I"Faggotto IIdo	*	*I"Fagotto Imo	*	*I"Oboe Secondo	*	*I"Oboe Primo	*
*group4	*group3	*	*group3	*	*group3	*	*group2	*group2	*	*group1	*	*group1	*	*group1	*	*group1	*
*B	*I'Vla	*	*I'Vn II	*	*I'Vn I	*	*I'Cor II	*I'Cor I	*	*I'Fg I	*	*I'Fg I	*	*I'Ob II	*	*I'Ob I	*
*	*clefC3	*	*clefG2	*	*clefG2	*	*clefG2	*clefG2	*	*clefF4	*	*clefF4	*	*clefG2	*	*clefG2	*
*	*	*	*	*	*	*	*ITrd3c5	*ITrd3c5	*	*	*	*	*	*	*	*	*
*	*k[f#]	*	*k[f#]	*	*k[f#]	*	*k[f#]	*k[f#]	*	*k[f#]	*	*k[f#]	*	*k[f#]	*	*k[f#]	*
*	*G:	*	*G:	*	*G:	*	*	*	*	*G:	*	*G:	*	*G:	*	*G:	*
*	*M6/8	*	*M6/8	*	*M6/8	*	*M6/8	*M6/8	*	*M6/8	*	*M6/8	*	*M6/8	*	*M6/8	*
*>[AABB]	*>[AABB]	*	*>[AABB]	*	*>[AABB]	*	*>[AABB]	*>[AABB]	*	*>[AABB]	*	*>[AABB]	*	*>[AABB]	*	*>[AABB]	*
=1	=1	=1	=1	=1	=1	=1	=1	=1	=1	=1	=1	=1	=1	=1	=1	=1	=1
*>A	*>A	*	*>A	*	*>A	*	*>A	*>A	*	*>A	*	*>A	*	*>A	*	*>A	*
!	!	!	!LO:TX:A:t=Presto	!	!LO:TX:a:t=Presto	!	!LO:TX:a:t=Presto	!LO:TX:a:t=Presto	!	!LO:TX:a:B:t=Presto	!	!LO:TX:a:B:t=Presto	!	!LO:TX:a:B:t=Presto	!	!LO:TX:a:B:t=Presto	!
!	!	!	!	!	!	!	!LO:TX:a:t=12	!	!	!LO:TX:a:B:t=ad Faggotto Primo	!	!	!	!LO:TX:a:t=12	!	!LO:TX:a:t=12	!
!LO:TX:a:t=problem:brak części Presto w skanie partii Basso	!LO:TX:a:t=problem:mixed beam	!LO:DY:t=for	!	!	!	!	!LO:N:vis=00	!LO:N:vis=00	!	!	!	!	!	!LO:N:vis=00	!	!LO:N:vis=00	!
2.ryy	8G/L	f	4.G/ 4.d 4.b	.	4.d/ 4.b 4.gg	f	0.r	0.r	.	4.G\yy	.	4.G\	.	0.r	.	0.r	.
.	8g\	.	.	.	.	.	.	.	.	.	.	.	.	.	.	.	.
.	8g\J	.	.	.	.	.	.	.	.	.	.	.	.	.	.	.	.
*	*tremolo	*	*	*	*	*	*	*	*	*	*	*	*	*	*	*	*
!	!	!	!	!	!	!LO:DY:t=p	!	!	!	!	!	!	!	!	!	!	!
!	!	!LO:DY:t=p:	!	!	!	!	!	!	!	!	!	!	!	!	!	!	!
.	8g\L	p	8B/L	p	8g/L	p	.	.	.	4.ryy	.	4.r	.	.	.	.	.
.	8g\	.	8c/	.	8a/	.	.	.	.	.	.	.	.	.	.	.	.
.	8g\J	.	8d/J	.	8b/J	.	.	.	.	.	.	.	.	.	.	.	.
*	*Xtremolo	*	*	*	*	*	*	*	*	*	*	*	*	*	*	*	*
=2	=2	=2	=2	=2	=2	=2	=2	=2	=2	=2	=2	=2	=2	=2	=2	=2	=2
!	!	!	!	!	!	!	!	!	!	!LO:TX:a:t=1	!	!LO:TX:a:t=1	!	!	!	!	!
2.ryy	8g\L	.	4c/	.	4a/	.	.	.	.	2.ryy	.	2.r	.	.	.	.	.
.	8g\	.	.	.	.	.	.	.	.	.	.	.	.	.	.	.	.
.	8g\J	.	8B/	.	8g/	.	.	.	.	.	.	.	.	.	.	.	.
*	*tremolo	*	*	*	*	*	*	*	*	*	*	*	*	*	*	*	*
.	8g\L	.	4c/	.	4a/	.	.	.	.	.	.	.	.	.	.	.	.
.	8g\	.	.	.	.	.	.	.	.	.	.	.	.	.	.	.	.
.	8g\J	.	8B/	.	8g/	.	.	.	.	.	.	.	.	.	.	.	.
*	*Xtremolo	*	*	*	*	*	*	*	*	*	*	*	*	*	*	*	*
=3	=3	=3	=3	=3	=3	=3	=3	=3	=3	=3	=3	=3	=3	=3	=3	=3	=3
!	!	!	!	!	!	!	!	!	!	!	!LO:DY:t=f	!	!LO:DY:t=f	!	!	!	!
2.ryy	8g\L	f	4.G/ 4.d 4.b	f	4.d/ 4.b 4.gg	f	.	.	.	4.G\yy	f	4.G\	f	.	.	.	.
.	8g\	.	.	.	.	.	.	.	.	.	.	.	.	.	.	.	.
.	8g\J	.	.	.	.	.	.	.	.	.	.	.	.	.	.	.	.
*	*tremolo	*	*	*	*	*	*	*	*	*	*	*	*	*	*	*	*
!	!	!	!	!	!	!LO:DY:t=p	!	!	!	!	!	!	!	!	!	!	!
.	8g\L	p	8g/L	p	8b\L	p	.	.	.	4.ryy	.	4.r	.	.	.	.	.
.	8g\	.	8a/	.	8cc\	.	.	.	.	.	.	.	.	.	.	.	.
.	8g\J	.	8b/J	.	8dd\J	.	.	.	.	.	.	.	.	.	.	.	.
=4	=4	=4	=4	=4	=4	=4	=4	=4	=4	=4	=4	=4	=4	=4	=4	=4	=4
.	.	.	.	.	8qqdd/	.	.	.	.	.	.	.	.	.	.	.	.
!	!	!	!	!	!	!	!	!	!	!LO:TX:a:t=1	!	!LO:TX:a:t=1	!	!	!	!	!
!	!	!	!	!	!	!	!	!	!	!LO:N:vis=2	!	!LO:N:vis=2	!	!	!	!	!
2.ryy	8g\L	.	4a/	.	4cc\	.	.	.	.	2.ryy	.	2.r	.	.	.	.	.
.	8g\	.	.	.	.	.	.	.	.	.	.	.	.	.	.	.	.
.	8g\J	.	8g/	.	8b\	.	.	.	.	.	.	.	.	.	.	.	.
.	.	.	.	.	8qqdd/	.	.	.	.	.	.	.	.	.	.	.	.
.	8g\L	.	4a/	.	4cc\	.	.	.	.	.	.	.	.	.	.	.	.
.	8g\	.	.	.	.	.	.	.	.	.	.	.	.	.	.	.	.
.	8g\J	.	8g/	.	8b\	.	.	.	.	.	.	.	.	.	.	.	.
=5	=5	=5	=5	=5	=5	=5	=5	=5	=5	=5	=5	=5	=5	=5	=5	=5	=5
!	!	!	!	!	!	!	!LO:N:vis=00	!LO:N:vis=00	!	!	!LO:DY:t=p	!	!LO:DY:t=p	!LO:N:vis=00	!	!LO:N:vis=00	!
2.ryy	8g\L	.	4.b\	.	4.dd\	.	0.r	0.r	.	4.G\yy	p	4.G\	p	0.r	.	0.r	.
.	8g\	.	.	.	.	.	.	.	.	.	.	.	.	.	.	.	.
.	8g\J	.	.	.	.	.	.	.	.	.	.	.	.	.	.	.	.
.	8g\L	.	8g\L	.	8b\L	.	.	.	.	4.GG/yy	.	4.GG/	.	.	.	.	.
.	8g\	.	8a\	.	8cc\	.	.	.	.	.	.	.	.	.	.	.	.
.	8g\J	.	8b\J	.	8dd\J	.	.	.	.	.	.	.	.	.	.	.	.
=6	=6	=6	=6	=6	=6	=6	=6	=6	=6	=6	=6	=6	=6	=6	=6	=6	=6
2.ryy	8c\L	.	4.cc\	.	4.ee\	.	.	.	.	4.C/yy	.	4.C/	.	.	.	.	.
.	8c\	.	.	.	.	.	.	.	.	.	.	.	.	.	.	.	.
.	8c\J	.	.	.	.	.	.	.	.	.	.	.	.	.	.	.	.
.	8c\L	.	8ee\L	.	8gg\L	.	.	.	.	4.c\yy	.	4.c\	.	.	.	.	.
.	8c\	.	8dd\	.	8ff#\	.	.	.	.	.	.	.	.	.	.	.	.
.	8c\J	.	8cc\J	.	8ee\J	.	.	.	.	.	.	.	.	.	.	.	.
=7	=7	=7	=7	=7	=7	=7	=7	=7	=7	=7	=7	=7	=7	=7	=7	=7	=7
2.ryy	8d\L	.	4b/	.	4dd\	.	.	.	.	4.d\yy	.	4.d\	.	.	.	.	.
.	8d\	.	.	.	.	.	.	.	.	.	.	.	.	.	.	.	.
.	8d\J	.	8g/	.	8b\	.	.	.	.	.	.	.	.	.	.	.	.
.	.	.	.	.	8qqdd/	.	.	.	.	.	.	.	.	.	.	.	.
.	8dd\L	.	8a/L	.	8cc\L	.	.	.	.	4.D/yy	.	4.D/	.	.	.	.	.
.	8dd\	.	8g/	.	8b\	.	.	.	.	.	.	.	.	.	.	.	.
.	8dd\J	.	8f#/J	.	8a\J	.	.	.	.	.	.	.	.	.	.	.	.
=8	=8	=8	=8	=8	=8	=8	=8	=8	=8	=8	=8	=8	=8	=8	=8	=8	=8
!	!	!	!	!	!LO:LB:g=original	!	!	!	!	!	!	!	!	!	!	!	!
2.ryy	8g\L	.	8g/L	.	8b\L	.	.	.	.	4.G\yy	.	4.G\	.	.	.	.	.
.	8g\	.	8a/	.	8cc\	.	.	.	.	.	.	.	.	.	.	.	.
.	8g\J	.	8b/J	.	8dd\J	.	.	.	.	.	.	.	.	.	.	.	.
.	8g\L	.	4.b/	.	4.dd\	.	.	.	.	8G\Lyy	.	8G\L	.	.	.	.	.
.	8g\	.	.	.	.	.	.	.	.	8D\yy	.	8D\	.	.	.	.	.
.	8g\J	.	.	.	.	.	.	.	.	8BB\Jyy	.	8BB\J	.	.	.	.	.
=9	=9	=9	=9	=9	=9	=9	=9	=9	=9	=9	=9	=9	=9	=9	=9	=9	=9
!	!	!	!LO:LB:g=original	!	!	!	!LO:N:vis=00	!LO:N:vis=00	!	!	!	!	!	!LO:N:vis=00	!	!LO:N:vis=00	!
2.ryy	8g\L	.	4.b/	.	4.dd\	.	0.r	0.r	.	4.GG/yy	.	4.GG/	.	0.r	.	0.r	.
.	8g\	.	.	.	.	.	.	.	.	.	.	.	.	.	.	.	.
.	8g\J	.	.	.	.	.	.	.	.	.	.	.	.	.	.	.	.
.	8g\L	.	8g/L	.	8b\L	.	.	.	.	4.G\yy	.	4.G\	.	.	.	.	.
.	8g\	.	8a/	.	8cc\	.	.	.	.	.	.	.	.	.	.	.	.
.	8g\J	.	8b/J	.	8dd\J	.	.	.	.	.	.	.	.	.	.	.	.
*	*Xtremolo	*	*	*	*	*	*	*	*	*	*	*	*	*	*	*	*
=10	=10	=10	=10	=10	=10	=10	=10	=10	=10	=10	=10	=10	=10	=10	=10	=10	=10
2.ryy	8c/L	.	4.cc\	.	4.ee\	.	.	.	.	4.C/yy	.	4.C/	.	.	.	.	.
.	8c/	.	.	.	.	.	.	.	.	.	.	.	.	.	.	.	.
.	8c/J	.	.	.	.	.	.	.	.	.	.	.	.	.	.	.	.
*	*tremolo	*	*	*	*	*	*	*	*	*	*	*	*	*	*	*	*
.	8c/L	.	8ee\L	.	8gg\L	.	.	.	.	4.c\yy	.	4.c\	.	.	.	.	.
.	8c/	.	8dd\	.	8ff#\	.	.	.	.	.	.	.	.	.	.	.	.
.	8c/J	.	8cc\J	.	8ee\J	.	.	.	.	.	.	.	.	.	.	.	.
*	*Xtremolo	*	*	*	*	*	*	*	*	*	*	*	*	*	*	*	*
=11	=11	=11	=11	=11	=11	=11	=11	=11	=11	=11	=11	=11	=11	=11	=11	=11	=11
!	!LO:LB:g=original	!	!	!	!	!	!	!	!	!LO:LB:g=original	!	!LO:LB:g=original	!	!	!	!	!
2.ryy	8d\L	.	4b/	.	4dd\	.	.	.	.	4.d\yy	.	4.d\	.	.	.	.	.
.	8d\	.	.	.	.	.	.	.	.	.	.	.	.	.	.	.	.
.	8d\J	.	8g/	.	8b\	.	.	.	.	.	.	.	.	.	.	.	.
.	.	.	8qqb/	.	8qqdd/	.	.	.	.	.	.	.	.	.	.	.	.
*	*tremolo	*	*	*	*	*	*	*	*	*	*	*	*	*	*	*	*
.	8dd\L	.	8a/L	.	8cc\L	.	.	.	.	4.D/yy	.	4.D/	.	.	.	.	.
.	8dd\	.	8g/	.	8b\	.	.	.	.	.	.	.	.	.	.	.	.
.	8dd\J	.	8f#/J	.	8a\J	.	.	.	.	.	.	.	.	.	.	.	.
*	*Xtremolo	*	*	*	*	*	*	*	*	*	*	*	*	*	*	*	*
=12	=12	=12	=12	=12	=12	=12	=12	=12	=12	=12	=12	=12	=12	=12	=12	=12	=12
2.ryy	8g\L	.	8B/L	.	8g/L	.	.	.	.	4.G\yy	.	4.G\	.	.	.	.	.
.	8g\	.	8B/	.	8g/	.	.	.	.	.	.	.	.	.	.	.	.
.	8g\J	.	8d/J	.	8b/J	.	.	.	.	.	.	.	.	.	.	.	.
.	8g\L	.	4.B/	.	4.g/	.	.	.	.	8G\Lyy	f	8G\L	f	.	.	.	.
.	8d\	.	.	.	.	.	.	.	.	8D\yy	.	8D\	.	.	.	.	.
.	8B\J	.	.	.	.	.	.	.	.	8BB\Jyy	.	8BB\J	.	.	.	.	.
=13	=13	=13	=13	=13	=13	=13	=13	=13	=13	=13	=13	=13	=13	=13	=13	=13	=13
!	!LO:TX:a:t=problem:mixed beam	!LO:TX:a:t=for	!	!LO:DY:t=fort	!	!LO:DY:t=fortif	!	!LO:TX:a:problem:ćwierćnuty z ogonkiem w dół mają ogonek po prawej stronie	!	!LO:TX:a:t=problem:mixed beam	!	!LO:TX:a:t=problem:mixed beam	!	!LO:TX:a:t=problem: ćwierćnuty w dół mają ogonki po lewej stronie	!	!	!
2.ryy	8G/L	f	4.G/ 4.d 4.b	f	4.d/ 4.b 4.gg	ff	4.G/	4.g\	.	8GG/Lyy	.	8GG/L	.	4.b\	.	4.gg\	f
.	8g\	.	.	.	.	.	.	.	.	8G\yy	.	8G\	.	.	.	.	.
.	8g\J	.	.	.	.	.	.	.	.	8G\Jyy	.	8G\J	.	.	.	.	.
*	*tremolo	*	*	*	*	*	*	*	*	*tremolo	*	*tremolo	*	*	*	*	*
.	8g\L	.	8B/L	.	8g/L	.	4.r	4.r	.	8G\Lyy	.	8G\L	.	4.r	.	4.r	.
.	8g\	.	8c/	.	8a/	.	.	.	.	8G\yy	.	8G\	.	.	.	.	.
.	8g\J	.	8d/J	.	8b/J	.	.	.	.	8G\Jyy	.	8G\J	.	.	.	.	.
=14	=14	=14	=14	=14	=14	=14	=14	=14	=14	=14	=14	=14	=14	=14	=14	=14	=14
2.ryy	8g\L	.	4c/	.	4a/	.	4.G/	4.g\	.	8G\Lyy	.	8G\L	.	4cc\	.	8r	.
.	8g\	.	.	.	.	.	.	.	.	8G\yy	.	8G\	.	.	.	8aa\	.
.	8g\J	.	8B/	.	8g/	.	.	.	.	8G\Jyy	.	8G\J	.	8b\	.	8gg\	.
.	8g\L	.	4c/	.	4a/	.	4.G/	4.g\	.	8G\Lyy	.	8G\L	.	4cc\	.	4aa\	.
.	8g\	.	.	.	.	.	.	.	.	8G\yy	.	8G\	.	.	.	.	.
.	8g\J	.	8B/	.	8g/	.	.	.	.	8G\Jyy	.	8G\J	.	8b\	.	8gg\	.
*	*Xtremolo	*	*	*	*	*	*	*	*	*Xtremolo	*	*Xtremolo	*	*	*	*	*
=15	=15	=15	=15	=15	=15	=15	=15	=15	=15	=15	=15	=15	=15	=15	=15	=15	=15
!	!LO:TX:a:t=problem:mixed beam	!	!	!	!	!	!	!	!	!LO:TX:a:t=problem:mixed beam	!	!LO:TX:a:t=problem:mixed beam	!	!	!	!	!
2.ryy	8G/L	.	4.G/ 4.d 4.b	.	4.d/ 4.b 4.gg	.	4.G/	4.g\	.	8GG/Lyy	.	8GG/L	.	4.b\	.	4.gg\	.
.	8g\	.	.	.	.	.	.	.	.	8G\yy	.	8G\	.	.	.	.	.
.	8g\J	.	.	.	.	.	.	.	.	8G\Jyy	.	8G\J	.	.	.	.	.
*	*tremolo	*	*	*	*	*	*	*	*	*tremolo	*	*tremolo	*	*	*	*	*
.	8g\L	.	8g/L	.	8b/L	.	4.r	4.r	.	8G\Lyy	.	8G\L	.	4.r	.	4.r	.
.	8g\	.	8a/	.	8cc/	.	.	.	.	8G\yy	.	8G\	.	.	.	.	.
.	8g\J	.	8b/J	.	8dd/J	.	.	.	.	8G\Jyy	.	8G\J	.	.	.	.	.
=16	=16	=16	=16	=16	=16	=16	=16	=16	=16	=16	=16	=16	=16	=16	=16	=16	=16
!	!	!	!	!	!LO:LB:g=original	!	!	!	!	!	!	!	!	!	!	!	!
.	.	.	8qqb/	.	.	.	.	.	.	.	.	.	.	.	.	.	.
2.ryy	8g\L	.	4a/	.	4cc\	.	4.G/	4.g\	.	8G\Lyy	.	8G\L	.	4cc\	.	4aa\	.
.	8g\	.	.	.	.	.	.	.	.	8G\yy	.	8G\	.	.	.	.	.
.	8g\J	.	8g/	.	8b\	.	.	.	.	8G\Jyy	.	8G\J	.	8b\	.	8gg\	.
.	8g\L	.	4a/	.	4cc\	.	4.G/	4.g\	.	8G\Lyy	.	8G\L	.	4cc\	.	4aa\	.
.	8g\	.	.	.	.	.	.	.	.	8G\yy	.	8G\	.	.	.	.	.
.	8g\J	.	8g/	.	8b\	.	.	.	.	8G\Jyy	.	8G\J	.	8b\	.	8gg\	.
*	*Xtremolo	*	*	*	*	*	*	*	*	*Xtremolo	*	*Xtremolo	*	*	*	*	*
=17	=17	=17	=17	=17	=17	=17	=17	=17	=17	=17	=17	=17	=17	=17	=17	=17	=17
*	*	*	*	*	*	*	*	*2\right	*	*	*	*	*	*2\right	*	*2\right	*
!	!	!	!LO:LB:g=original	!	!	!	!	!	!	!	!	!	!	!	!	!	!
2.ryy	8g\L	.	16dd\LL	.	16bb\LL	.	2.G/	2.g\	.	8G\Lyy	.	8G\L	.	2.gg\	.	2.bb\	.
.	.	.	16dd\	.	16bb\	.	.	.	.	.	.	.	.	.	.	.	.
.	8b\	.	16dd\	.	16bb\	.	.	.	.	8B\yy	.	8B\	.	.	.	.	.
.	.	.	16dd\	.	16bb\	.	.	.	.	.	.	.	.	.	.	.	.
.	8a\J	.	16dd\	.	16bb\	.	.	.	.	8A\Jyy	.	8A\J	.	.	.	.	.
.	.	.	16dd\JJ	.	16bb\JJ	.	.	.	.	.	.	.	.	.	.	.	.
*	*	*	*tremolo	*	*tremolo	*	*	*	*	*	*	*	*	*	*	*	*
.	8g\L	.	16dd\LL	.	16bb\LL	.	.	.	.	8G\Lyy	.	8G\L	.	.	.	.	.
.	.	.	16dd\	.	16bb\	.	.	.	.	.	.	.	.	.	.	.	.
.	8b\	.	16dd\	.	16bb\	.	.	.	.	8B\yy	.	8B\	.	.	.	.	.
.	.	.	16dd\	.	16bb\	.	.	.	.	.	.	.	.	.	.	.	.
.	8cc#X\J	.	16dd\	.	16bb\	.	.	.	.	8c#X\Jyy	.	8c#X\J	.	.	.	.	.
.	.	.	16dd\JJ	.	16bb\JJ	.	.	.	.	.	.	.	.	.	.	.	.
=18	=18	=18	=18	=18	=18	=18	=18	=18	=18	=18	=18	=18	=18	=18	=18	=18	=18
*	*	*	*	*	*2\right	*	*	*	*	*	*	*	*	*	*	*	*
2.ryy	8dd\L	.	16dd\LL	.	16aa\LL	.	2.d/	2.a\	.	8d\Lyy	.	8d\L	.	2.ff#\	.	2.aa\	.
.	.	.	16dd\	.	16aa\	.	.	.	.	.	.	.	.	.	.	.	.
.	8a\	.	16dd\	.	16aa\	.	.	.	.	8A\yy	.	8A\	.	.	.	.	.
.	.	.	16dd\	.	16aa\	.	.	.	.	.	.	.	.	.	.	.	.
.	8f#\J	.	16dd\	.	16aa\	.	.	.	.	8F#\Jyy	.	8F#\J	.	.	.	.	.
.	.	.	16dd\	.	16aa\	.	.	.	.	.	.	.	.	.	.	.	.
.	8d\L	.	16dd\	.	16aa\	.	.	.	.	8D\Lyy	.	8D\L	.	.	.	.	.
.	.	.	16dd\	.	16aa\	.	.	.	.	.	.	.	.	.	.	.	.
.	8f#\	.	16dd\	.	16aa\	.	.	.	.	8F#\yy	.	8F#\	.	.	.	.	.
.	.	.	16dd\	.	16aa\	.	.	.	.	.	.	.	.	.	.	.	.
.	8d\J	.	16dd\	.	16aa\	.	.	.	.	8D\Jyy	.	8D\J	.	.	.	.	.
.	.	.	16dd\JJ	.	16aa\JJ	.	.	.	.	.	.	.	.	.	.	.	.
=19	=19	=19	=19	=19	=19	=19	=19	=19	=19	=19	=19	=19	=19	=19	=19	=19	=19
!	!	!	!	!	!	!	!LO:TX:a:t=4	!LO:TX:a:t=4	!	!LO:LB:g=original	!	!LO:LB:g=original	!	!LO:LB:g=original	!	!	!
!	!	!	!	!	!	!	!LO:N:vis=00	!LO:N:vis=00	!	!	!	!	!	!	!	!	!
2.ryy	8e\L	.	16b\LL	.	16gg\LL	.	0.r	0.r	.	8E\Lyy	.	8E\L	.	2.ee\	.	2.gg\	.
.	.	.	16b\	.	16gg\	.	.	.	.	.	.	.	.	.	.	.	.
.	8g\	.	16b\	.	16gg\	.	.	.	.	8G\yy	.	8G\	.	.	.	.	.
.	.	.	16b\	.	16gg\	.	.	.	.	.	.	.	.	.	.	.	.
.	8f#\J	.	16b\	.	16gg\	.	.	.	.	8F#\Jyy	.	8F#\J	.	.	.	.	.
.	.	.	16b\	.	16gg\	.	.	.	.	.	.	.	.	.	.	.	.
.	8e\L	.	16b\	.	16gg\	.	.	.	.	8E\Lyy	.	8E\L	.	.	.	.	.
.	.	.	16b\	.	16gg\	.	.	.	.	.	.	.	.	.	.	.	.
.	8g\	.	16b\	.	16gg\	.	.	.	.	8G\yy	.	8G\	.	.	.	.	.
.	.	.	16b\	.	16gg\	.	.	.	.	.	.	.	.	.	.	.	.
.	8a\J	.	16b\	.	16gg\	.	.	.	.	8A\Jyy	.	8A\J	.	.	.	.	.
.	.	.	16b\JJ	.	16gg\JJ	.	.	.	.	.	.	.	.	.	.	.	.
=20	=20	=20	=20	=20	=20	=20	=20	=20	=20	=20	=20	=20	=20	=20	=20	=20	=20
!	!LO:LB:g=original	!	!	!	!	!	!	!	!	!	!	!	!	!	!	!	!
2.ryy	8b\L	.	16b\LL	.	16ff#\LL	.	.	.	.	8B\Lyy	.	8B\L	.	2.dd\	.	2.ff#\	.
.	.	.	16b\	.	16ff#\	.	.	.	.	.	.	.	.	.	.	.	.
.	8f#\	.	16b\	.	16ff#\	.	.	.	.	8F#\yy	.	8F#\	.	.	.	.	.
.	.	.	16b\	.	16ff#\	.	.	.	.	.	.	.	.	.	.	.	.
.	8d\J	.	16b\	.	16ff#\	.	.	.	.	8D\Jyy	.	8D\J	.	.	.	.	.
.	.	.	16b\	.	16ff#\	.	.	.	.	.	.	.	.	.	.	.	.
.	8B/L	.	16b\	.	16ff#\	.	.	.	.	8BB/Lyy	.	8BB/L	.	.	.	.	.
.	.	.	16b\	.	16ff#\	.	.	.	.	.	.	.	.	.	.	.	.
.	8d/	.	16b\	.	16ff#\	.	.	.	.	8D/yy	.	8D/	.	.	.	.	.
.	.	.	16b\	.	16ff#\	.	.	.	.	.	.	.	.	.	.	.	.
.	8B/J	.	16b\	.	16ff#\	.	.	.	.	8BB/Jyy	.	8BB/J	.	.	.	.	.
.	.	.	16b\JJ	.	16ff#\JJ	.	.	.	.	.	.	.	.	.	.	.	.
=21	=21	=21	=21	=21	=21	=21	=21	=21	=21	=21	=21	=21	=21	=21	=21	=21	=21
!	!	!	!	!	!	!	!	!	!	!	!	!	!	!	!	!LO:LB:g=original	!
2.ryy	8c\L	.	16g/LL	.	16ee\LL	.	.	.	.	8C/Lyy	.	8C/L	.	2.cc\	.	2.ee\	.
.	.	.	16g/	.	16ee\	.	.	.	.	.	.	.	.	.	.	.	.
.	8e\	.	16g/	.	16ee\	.	.	.	.	8E/yy	.	8E/	.	.	.	.	.
.	.	.	16g/	.	16ee\	.	.	.	.	.	.	.	.	.	.	.	.
.	8d\J	.	16g/	.	16ee\	.	.	.	.	8D/Jyy	.	8D/J	.	.	.	.	.
.	.	.	16g/	.	16ee\	.	.	.	.	.	.	.	.	.	.	.	.
.	8c\L	.	16g/	.	16ee\	.	.	.	.	8C/Lyy	.	8C/L	.	.	.	.	.
.	.	.	16g/	.	16ee\	.	.	.	.	.	.	.	.	.	.	.	.
.	8e\	.	16g/	.	16ee\	.	.	.	.	8E/yy	.	8E/	.	.	.	.	.
.	.	.	16g/	.	16ee\	.	.	.	.	.	.	.	.	.	.	.	.
.	8f#X\J	.	16g/	.	16ee\	.	.	.	.	8F#/Jyy	.	8F#/J	.	.	.	.	.
.	.	.	16g/JJ	.	16ee\JJ	.	.	.	.	.	.	.	.	.	.	.	.
=22	=22	=22	=22	=22	=22	=22	=22	=22	=22	=22	=22	=22	=22	=22	=22	=22	=22
2.ryy	8g\L	.	16g/LL	.	16dd\LL	.	.	.	.	8G\Lyy	.	8G\L	.	2.b\	.	2.dd\	.
.	.	.	16g/	.	16dd\	.	.	.	.	.	.	.	.	.	.	.	.
.	8d\	.	16g/	.	16dd\	.	.	.	.	8D\yy	.	8D\	.	.	.	.	.
.	.	.	16g/	.	16dd\	.	.	.	.	.	.	.	.	.	.	.	.
.	8c\J	.	16g/	.	16dd\	.	.	.	.	8C\Jyy	.	8C\J	.	.	.	.	.
.	.	.	16g/	.	16dd\	.	.	.	.	.	.	.	.	.	.	.	.
.	8B/L	.	16g/	.	16dd\	.	.	.	.	8BB/Lyy	.	8BB/L	.	.	.	.	.
.	.	.	16g/	.	16dd\	.	.	.	.	.	.	.	.	.	.	.	.
.	8A/	.	16g/	.	16dd\	.	.	.	.	8AA/yy	.	8AA/	.	.	.	.	.
.	.	.	16g/	.	16dd\	.	.	.	.	.	.	.	.	.	.	.	.
.	8G/J	.	16g/	.	16dd\	.	.	.	.	8GG/Jyy	.	8GG/J	.	.	.	.	.
.	.	.	16g/JJ	.	16dd\JJ	.	.	.	.	.	.	.	.	.	.	.	.
=23	=23	=23	=23	=23	=23	=23	=23	=23	=23	=23	=23	=23	=23	=23	=23	=23	=23
!	!	!	!	!	!	!	!	!LO:N:vis=1	!	!	!	!	!	!	!	!	!
2.ryy	8e\L	.	16a/LL	.	16cc\LL	.	2.d/	2.a\	.	8E\Lyy	.	8E\L	.	2.a/	.	2.cc\	.
.	.	.	16a/	.	16cc\	.	.	.	.	.	.	.	.	.	.	.	.
.	8a\	.	16a/	.	16cc\	.	.	.	.	8A\yy	.	8A\	.	.	.	.	.
.	.	.	16a/	.	16cc\	.	.	.	.	.	.	.	.	.	.	.	.
.	8g\J	.	16a/	.	16cc\	.	.	.	.	8G\Jyy	.	8G\J	.	.	.	.	.
.	.	.	16a/	.	16cc\	.	.	.	.	.	.	.	.	.	.	.	.
.	8f#\L	.	16a/	.	16cc\	.	.	.	.	8F#\Lyy	.	8F#\L	.	.	.	.	.
.	.	.	16a/	.	16cc\	.	.	.	.	.	.	.	.	.	.	.	.
.	8e\	.	16a/	.	16cc\	.	.	.	.	8E\yy	.	8E\	.	.	.	.	.
.	.	.	16a/	.	16cc\	.	.	.	.	.	.	.	.	.	.	.	.
.	8d\J	.	16a/	.	16cc\	.	.	.	.	8D\Jyy	.	8D\J	.	.	.	.	.
.	.	.	16a/JJ	.	16cc\JJ	.	.	.	.	.	.	.	.	.	.	.	.
=24	=24	=24	=24	=24	=24	=24	=24	=24	=24	=24	=24	=24	=24	=24	=24	=24	=24
!	!	!	!	!	!	!	!LO:LB:g=original	!LO:LB:g=original	!	!	!	!	!	!	!	!	!
2.ryy	8g\L	.	16g/LL	.	16b\LL	.	4G/	4g\	.	8G\Lyy	.	8G\L	.	2.g/	.	4.b\	.
.	.	.	16g/	.	16b\	.	.	.	.	.	.	.	.	.	.	.	.
.	8f#X\	.	16g/	.	16b\	.	.	.	.	8F#X\yy	.	8F#X\	.	.	.	.	.
.	.	.	16g/	.	16b\	.	.	.	.	.	.	.	.	.	.	.	.
.	8g\J	.	16g/	.	16b\	.	8r	8r	.	8G\Jyy	.	8G\J	.	.	.	.	.
.	.	.	16g/	.	16b\JJ	.	.	.	.	.	.	.	.	.	.	.	.
.	8e\L	.	16g/	.	16cc#X\LL	.	4.r	4.r	.	8E\Lyy	.	8E\L	.	.	.	4.cc#X\	.
.	.	.	16g/	.	16cc#\	.	.	.	.	.	.	.	.	.	.	.	.
.	8a\	.	16g/	.	16cc#\	.	.	.	.	8A\yy	.	8A\	.	.	.	.	.
.	.	.	16g/	.	16cc#\	.	.	.	.	.	.	.	.	.	.	.	.
.	8g\J	.	16g/	.	16cc#\	.	.	.	.	8G\Jyy	.	8G\J	.	.	.	.	.
.	.	.	16g/JJ	.	16cc#\JJ	.	.	.	.	.	.	.	.	.	.	.	.
*	*	*	*Xtremolo	*	*Xtremolo	*	*	*	*	*	*	*	*	*	*	*	*
=25	=25	=25	=25	=25	=25	=25	=25	=25	=25	=25	=25	=25	=25	=25	=25	=25	=25
!	!	!	!	!	!LO:LB:g=original	!	!	!	!	!	!	!	!	!	!	!	!
2.ryy	8f#\L	.	8f#/L	.	8dd/L	.	8d/L	8a\L	.	8F#\Lyy	.	8F#\L	.	8f#/L	.	8dd\L	.
.	8a\	.	8a/	.	8a/	.	8d/	8a\	.	8A\yy	.	8A\	.	8f#/	.	8dd\	.
.	8f#\J	.	8f#/J	.	8f#/J	.	8d/J	8a\J	.	8F#\Jyy	.	8F#\J	.	8f#/J	.	8dd\J	.
!	!	!	!	!	!LO:N:vis=4	!	!	!	!	!	!	!	!	!	!	!	!
.	4.d\	.	4.d/	.	4.d/	.	4d/	4a\	.	4.D\yy	.	4.D\	.	4f#/	.	4.dd\	.
.	.	.	.	.	.	.	8r	8r	.	.	.	.	.	8r	.	.	.
=26	=26	=26	=26	=26	=26	=26	=26	=26	=26	=26	=26	=26	=26	=26	=26	=26	=26
!	!	!	!LO:LB:g=original	!	!	!	!LO:N:vis=00	!LO:TX:a:t=11	!	!LO:LB:g=original	!	!LO:LB:g=original	!	!LO:TX:b:t=dolce	!	!LO:TX:b:t=dolce	!
!	!	!	!	!	!	!	!LO:TX:a:t=11	!LO:N:vis=00	!	!	!	!	!	!	!	!	!
2.ryy	2.d\	.	4f#/	p	4a/	pp	0.r	0.r	.	4.D\yy	.	4.D\	.	4ff#\	.	4aa\	.
!	!	!	!	!	!LO:TX:b:t=dolce	!	!	!	!	!	!	!	!	!	!	!	!
.	.	.	8e/	.	8g/	.	.	.	.	.	.	.	.	8ee\	.	8gg\	.
!	!	!	!LO:TX:b:t=Dolce	!	!	!	!	!	!	!	!	!	!	!	!	!LO:TX:a:t=problem:niewyraźby łuk	!
.	.	.	8d/L	.	8f#/L	.	.	.	.	4.d\yy	.	4.d\	.	(8dd\L	.	(8ff#\L	.
.	.	.	8c#X/	.	8e/	.	.	.	.	.	.	.	.	8cc#X\	.	8ee\)	.
.	.	.	8d/J	.	8f#/J	.	.	.	.	.	.	.	.	8dd\J)	.	8ff#\J	.
=27	=27	=27	=27	=27	=27	=27	=27	=27	=27	=27	=27	=27	=27	=27	=27	=27	=27
!	!	!	!	!	!	!	!	!	!	!	!LO:DY:t=p:	!	!LO:DY:t=p:	!	!	!	!
2.ryy	2.A/	p	4e/	.	4g/	.	.	.	.	4.A\yy	p	4.A\	p	4ee\	.	4gg\	.
.	.	.	8d/	.	8f#/	.	.	.	.	.	.	.	.	8dd\	.	8ff#\	.
!	!	!	!LO:TX:a:t=sic!:s=8c#	!	!	!	!	!	!	!	!	!	!	!	!	!	!
.	.	.	8c/L	.	8e/L	.	.	.	.	4.AA/yy	.	4.AA/	.	8cc#X\L	.	(8ee\L	.
.	.	.	8d/	.	8f#/	.	.	.	.	.	.	.	.	8dd\	.	8ff#\)	.
.	.	.	8e/J	.	8g/J	.	.	.	.	.	.	.	.	8ee\J	.	8gg`\J	.
=28	=28	=28	=28	=28	=28	=28	=28	=28	=28	=28	=28	=28	=28	=28	=28	=28	=28
2.ryy	2.d\	.	4.d/	.	8f#/L	.	.	.	.	4.D\yy	.	4.D\	.	4.dd\	.	(8ff#\L	.
.	.	.	.	.	8e/	.	.	.	.	.	.	.	.	.	.	8ee\)	.
.	.	.	.	.	8d/J	.	.	.	.	.	.	.	.	.	.	8dd`\J	.
!	!	!	!	!	!	!	!	!	!	!	!	!	!	!LO:LB:g=original	!	!	!
.	.	.	8b\L	.	8dd\L	.	.	.	.	4.D\yy	.	4.D\	.	(8bb\L	.	(8ddd\L	.
!	!	!	!	!	!LO:TX:a:t=sic!:s=8cc#	!	!	!	!	!	!	!	!	!	!	!	!
.	.	.	8a\	.	8cc\	.	.	.	.	.	.	.	.	8aa\)	.	8ccc#X\)	.
.	.	.	8g\J	.	8b\J	.	.	.	.	.	.	.	.	8gg`\J	.	8bb`\J	.
=29	=29	=29	=29	=29	=29	=29	=29	=29	=29	=29	=29	=29	=29	=29	=29	=29	=29
2.ryy	4.A/	.	4f#/	.	4a/	.	.	.	.	4A\yy	.	4A\	.	4ff#\	.	4aa\	.
.	.	.	8e/	.	8g/	.	.	.	.	8AA/yy	.	8AA/	.	8ee\	.	8gg\	.
.	8d\L	.	4d/	.	4f#/	.	.	.	.	8D\Lyy	.	8D\L	.	4dd\	.	4ff#\	.
.	8f#\	.	.	.	.	.	.	.	.	8F#\yy	.	8F#\	.	.	.	.	.
.	8d\J	.	8r	.	8r	.	.	.	.	8D\Jyy	.	8D\J	.	8r	.	8r	.
=30	=30	=30	=30	=30	=30	=30	=30	=30	=30	=30	=30	=30	=30	=30	=30	=30	=30
!	!LO:LB:g=original	!	!	!	!	!	!	!	!	!	!	!	!	!	!	!LO:LB:g=original	!
.	.	.	.	.	.	.	.	.	.	.	.	.	.	8qqff#/	.	8qqaa/	.
!	!	!	!	!	!	!	!LO:N:vis=00	!LO:N:vis=00	!	!	!	!	!	!	!	!	!
2.ryy	4.A/	.	8e/L	.	8g/L	.	0.r	0.r	.	4.A\yy	.	4.A\	.	8ee\L	.	8gg\L	.
.	.	.	8d/	.	8f#/	.	.	.	.	.	.	.	.	8dd\	.	8ff#\	.
!	!	!	!	!	!	!	!	!	!	!	!	!	!	!LO:TX:a:t=sic!:s=8cc#	!	!	!
.	.	.	8c#X/J	.	8e/J	.	.	.	.	.	.	.	.	8cc\J	.	8ee\J	.
.	8A/L	.	4c#/	.	4e/	.	.	.	.	8AA/Lyy	.	8AA/L	.	4cc\	.	4ee\	.
!	!	!	!	!	!	!	!	!	!	!LO:TX:a:t=sic!:s=8C#	!	!LO:TX:a:t=sic!:s=8C#	!	!	!	!	!
.	8c#X/	.	.	.	.	.	.	.	.	8C/yy	.	8C/	.	.	.	.	.
.	8A/J	.	8c#/	.	8e/	.	.	.	.	8AA/Jyy	.	8AA/J	.	8cc\	.	8ee\	.
=31	=31	=31	=31	=31	=31	=31	=31	=31	=31	=31	=31	=31	=31	=31	=31	=31	=31
2.ryy	4.d\	.	4f#/	.	4a/	.	.	.	.	4.D\yy	.	4.D\	.	4ff#\	.	4aa\	.
.	.	.	8e/	.	8g/	.	.	.	.	.	.	.	.	8ee\	.	8gg\	.
.	4.D/	.	8d/L	.	8f#/L	.	.	.	.	4.DD/yy	.	4.DD/	.	(8dd\L	.	8ff#\L	.
.	.	.	8e/	.	8g/	.	.	.	.	.	.	.	.	8ee\)	.	8gg\	.
.	.	.	8f#/J	.	8a/J	.	.	.	.	.	.	.	.	8ff#`\J	.	8aa\J	.
=32	=32	=32	=32	=32	=32	=32	=32	=32	=32	=32	=32	=32	=32	=32	=32	=32	=32
!	!	!	!	!	!LO:LB:g=original	!	!	!	!	!	!	!	!	!	!	!	!
2.ryy	4.G/	.	(8g/L	.	8b/L	.	.	.	.	4.GG/yy	.	4.GG/	.	(8gg\L	.	(8bb\L	.
.	.	.	8f#/)	.	8a/	.	.	.	.	.	.	.	.	8ff#\)	.	8aa\)	.
.	.	.	8e`/J	.	8g/J	.	.	.	.	.	.	.	.	8ee`\J	.	8gg`\J	.
.	4.A/	.	(8e/L	.	8g/L	.	.	.	.	4.AA/yy	.	4.AA/	.	8ee\L	.	(8gg\L	.
.	.	.	8d/)	.	8f#/	.	.	.	.	.	.	.	.	8dd\	.	8ff#\)	.
!	!	!	!	!	!	!	!	!	!	!	!	!	!	!LO:TX:a:t=sic!:s=8cc#	!	!	!
.	.	.	8c#X`/J	.	8e/J	.	.	.	.	.	.	.	.	8cc\J	.	8ee`\J	.
=33	=33	=33	=33	=33	=33	=33	=33	=33	=33	=33	=33	=33	=33	=33	=33	=33	=33
!	!	!	!LO:LB:g=original	!	!	!	!	!	!	!	!	!	!	!	!	!	!
2.ryy	4.d\	.	8d/L	.	8f#/L	.	.	.	.	4.D\yy	.	4.D\	.	8dd`\L	.	8ff#`\L	.
.	.	.	8d/	.	8f#/	.	.	.	.	.	.	.	.	(8dd\	.	(8ff#\	.
.	.	.	8e/J	.	8g/J	.	.	.	.	.	.	.	.	8ee\J)	.	8gg\J)	.
.	8d\L	.	4f#/	.	4a/	.	.	.	.	8D\Lyy	.	8D\L	.	4ff#\	.	4aa\	.
.	8f#\	.	.	.	.	.	.	.	.	8F#\yy	.	8F#\	.	.	.	.	.
.	8d\J	.	8r	.	8r	.	.	.	.	8D\Jyy	.	8D\J	.	8r	.	8r	.
=34	=34	=34	=34	=34	=34	=34	=34	=34	=34	=34	=34	=34	=34	=34	=34	=34	=34
!	!	!	!	!	!	!	!LO:N:vis=0	!LO:N:vis=0	!	!	!	!	!	!	!	!	!
2.ryy	4.a\	.	4e/	.	4g/	.	1.r	1.r	.	4.A\yy	.	4.A\	.	4ee\	.	4gg\	.
.	.	.	8d/	.	8f#/	.	.	.	.	.	.	.	.	8dd\	.	8ff#\	.
!	!	!	!LO:TX:a:t=sic!:s=8c#	!	!	!	!	!	!	!	!	!	!	!LO:LB:g=original	!	!	!
.	4.A/	.	8c/L	.	8e/L	.	.	.	.	4.AA/yy	.	4.AA/	.	(8cc\L	.	(8ee\L	.
.	.	.	8d/	.	8f#/	.	.	.	.	.	.	.	.	8dd\	.	8ff#\)	.
.	.	.	8e/J	.	8g/J	.	.	.	.	.	.	.	.	8ee`\J)	.	8gg`\J	.
=35	=35	=35	=35	=35	=35	=35	=35	=35	=35	=35	=35	=35	=35	=35	=35	=35	=35
2.ryy	4.d\	.	4f#/	.	4a/	.	.	.	.	4.D\yy	.	4.D\	.	4ff#\	.	4aa\	.
.	.	.	8e/	.	8g/	.	.	.	.	.	.	.	.	8ee\	.	8gg\	.
.	4.dd\	.	8d/L	.	8f#/L	.	.	.	.	4.D\yy	.	4.D\	.	(8dd\L	.	(8ff#\L	.
.	.	.	8e/	.	8g/	.	.	.	.	.	.	.	.	8ee\)	.	8gg\)	.
.	.	.	8f#/J	.	8a/J	.	.	.	.	.	.	.	.	8ff#`\J	.	8aa`\J	.
=36	=36	=36	=36	=36	=36	=36	=36	=36	=36	=36	=36	=36	=36	=36	=36	=36	=36
!	!	!	!	!	!	!	!	!	!	!LO:PB:g=original	!	!LO:PB:g=original	!	!	!	!	!
2.ryy	4.g\	.	8e'/L	.	8g/L	.	2.r	2.r	.	4.G\yy	.	4.G\	.	8ee\L	.	8gg\L	.
.	.	.	8g'/	.	8b/	.	.	.	.	.	.	.	.	8gg\	.	8bb\	.
.	.	.	8f#'/J	.	8a/J	.	.	.	.	.	.	.	.	8ff#\J	.	8aa\J	.
.	.	.	.	.	.	.	.	.	.	.	.	.	.	.	.	8qqaa/	.
.	4.a\	.	8e/L	.	8g/L	.	.	.	.	4.A\yy	.	4.A\	.	8ee'\L	.	8gg\L	.
.	.	.	8d/	.	8f#/	.	.	.	.	.	.	.	.	8dd'\	.	8ff#\	.
.	.	.	8c#X/J	.	8e/J	.	.	.	.	.	.	.	.	8cc#X'\J	.	8ee\J	.
=37	=37	=37	=37	=37	=37	=37	=37	=37	=37	=37	=37	=37	=37	=37	=37	=37	=37
*	*	*	*	*	*	*	*	*	*	*tremolo	*	*tremolo	*	*	*	*	*
!	!	!	!	!	!	!	!	!	!	!	!	!	!	!	!	!LO:LB:g=original	!
!	!	!LO:HP:t=cres	!	!	!	!	!	!	!	!	!LO:HP:t=cres	!	!LO:HP:t=cres	!	!LO:HP:t=cres	!	!LO:HP:t=cres
2.ryy	8d\L	<	(2.d/	.	4.d/	.	2.d/	2.dd\	.	8D\Lyy	<	8D\L	<	2.dd\	<	4.dd\	<
.	8d\	.	.	.	.	.	.	.	.	8D\yy	.	8D\	.	.	.	.	.
.	8d\J	.	.	.	.	.	.	.	.	8D\Jyy	.	8D\J	.	.	.	.	.
*	*tremolo	*	*	*	*	*	*	*	*	*	*	*	*	*	*	*	*
!	!	!	!	!	!	!LO:DY:t=cres:	!	!	!	!	!	!	!	!	!	!	!
.	8d\L	.	.	.	4.f#/	<	.	.	.	8D\Lyy	.	8D\L	.	.	.	4.ff#\	.
.	8d\	.	.	.	.	.	.	.	.	8D\yy	.	8D\	.	.	.	.	.
.	8d\J	.	.	.	.	.	.	.	.	8D\Jyy	.	8D\J	.	.	.	.	.
=38	=38	=38	=38	=38	=38	=38	=38	=38	=38	=38	=38	=38	=38	=38	=38	=38	=38
!	!	!	!	!	!	!	!	!	!	!	!	!	!	!	!	!LO:N:vis=4	!
2.ryy	8d\L	.	4.e/)	.	4.g/	.	2.d/	2.dd\	.	8D\Lyy	.	8D\L	.	4.ee\	.	4.gg\	.
.	8d\	.	.	.	.	.	.	.	.	8D\yy	.	8D\	.	.	.	.	.
.	8d\	.	.	.	.	.	.	.	.	8D\Jyy	.	8D\J	.	.	.	.	.
!	!	!	!LO:TX:a:t=sic!:s=8c#	!	!	!	!	!	!	!	!	!	!	!	!	!	!
.	8d\	.	8c/L	.	8e/L	.	.	.	.	8D\Lyy	.	8D\L	.	8cc#X\L	.	8ee\L	.
.	8d\	.	8B/	.	8d/	.	.	.	.	8D\yy	.	8D\	.	8b\	.	8dd\	.
.	8d\J	.	8c/J	.	8e/J	.	.	.	.	8D\Jyy	.	8D\J	.	8cc#\J	.	8ee\J	.
=39	=39	=39	=39	=39	=39	=39	=39	=39	=39	=39	=39	=39	=39	=39	=39	=39	=39
2.ryy	8d\L	.	4.d/	.	4.f#/	.	2.d/	2.dd\	.	8D\Lyy	.	8D\L	.	4.dd\	.	4.ff#\	.
.	8d\	.	.	.	.	.	.	.	.	8D\yy	.	8D\	.	.	.	.	.
.	8d\	.	.	.	.	.	.	.	.	8D\Jyy	.	8D\J	.	.	.	.	.
.	8d\	.	4.f#/	.	4.a/	.	.	.	.	8D\Lyy	.	8D\L	.	4.ff#\	.	4.aa\	.
.	8d\	.	.	.	.	.	.	.	.	8D\yy	.	8D\	.	.	.	.	.
.	8d\J	.	.	.	.	.	.	.	.	8D\Jyy	.	8D\J	.	.	.	.	.
=40	=40	=40	=40	=40	=40	=40	=40	=40	=40	=40	=40	=40	=40	=40	=40	=40	=40
!	!	!	!	!	!LO:LB:g=original	!	!	!	!	!	!	!	!	!	!	!	!
2.ryy	8d\L	.	4.g/	.	4.b\	.	2.d/	2.dd\	.	8D\Lyy	.	8D\L	.	4.gg\	.	4.bb\	.
.	8d\	.	.	.	.	.	.	.	.	8D\yy	.	8D\	.	.	.	.	.
.	8d\	.	.	.	.	.	.	.	.	8D\Jyy	.	8D\J	.	.	.	.	.
.	8d\	.	8e/L	.	8g/L	.	.	.	.	8D\Lyy	.	8D\L	.	8ee\L	.	8gg\L	.
.	8d\	.	8d/	.	8f#/	.	.	.	.	8D\yy	.	8D\	.	8dd\	.	8ff#\	.
.	8d\J	.	8e/J	.	8g/J	.	.	.	.	8D\Jyy	.	8D\J	.	8ee\J	.	8gg\J	.
=41	=41	=41	=41	=41	=41	=41	=41	=41	=41	=41	=41	=41	=41	=41	=41	=41	=41
!	!	!	!LO:LB:g=original	!	!	!	!	!	!	!	!	!	!	!	!	!	!
.	.	.	.	.	8qqf#/	f	.	.	.	.	.	.	.	.	.	.	.
!	!	!	!	!LO:DY:t=f:	!	!	!	!	!	!	!	!	!	!	!	!	!
2.ryy	8d\L	.	4.d/ 4.f#	f	4.dd\	.	2.d/	2.dd\	.	8D\Lyy	.	8D\L	.	4.dd\	f	4.ff#\	.
.	8d\	.	.	.	.	.	.	.	.	8D\yy	.	8D\	.	.	.	.	.
.	8d\	.	.	.	.	.	.	.	.	8D\Jyy	.	8D\J	.	.	.	.	.
.	8d\	.	8dd\L	.	8ff#\L	.	.	.	.	8D\Lyy	.	8D\L	.	8dd\L	.	8ff#\L	f
!	!	!	!	!	!	!	!	!	!	!	!	!	!	!LO:TX:a:t=sic!:s=8cc#	!	!	!
.	8d\	.	8cc#X\	.	8ee\	.	.	.	.	8D\yy	.	8D\	.	8cc\	.	8ee\	.
.	8d\J	.	8dd\J	.	8ff#\J	.	.	.	.	8D\Jyy	.	8D\J	.	8dd\J	.	8ff#\J	.
=42	=42	=42	=42	=42	=42	=42	=42	=42	=42	=42	=42	=42	=42	=42	=42	=42	=42
!	!	!	!	!	!	!	!	!	!	!	!	!	!	!LO:LB:g=original	!	!	!
2.ryy	8d\L	.	4.ee\	.	4.gg\	.	2.d/	2.dd\	.	8D\Lyy	.	8D\L	.	4.ee\	.	4.gg\	.
.	8d\	.	.	.	.	.	.	.	.	8D\yy	.	8D\	.	.	.	.	.
.	8d\	.	.	.	.	.	.	.	.	8D\Jyy	.	8D\J	.	.	.	.	.
!	!	!	!	!	!	!	!	!	!	!	!	!	!	!LO:TX:a:t=sic!:s=8cc#	!	!	!
.	8d\	.	8cc#X\L	.	8ee\L	.	.	.	.	8D\Lyy	.	8D\L	.	8cc\L	.	8ee\L	.
.	8d\	.	8b\	.	8dd\	.	.	.	.	8D\yy	.	8D\	.	8b\	.	8dd\	.
.	8d\J	.	8cc#\J	.	8ee\J	.	.	.	.	8D\Jyy	.	8D\J	.	8cc\J	.	8ee\J	.
=43	=43	=43	=43	=43	=43	=43	=43	=43	=43	=43	=43	=43	=43	=43	=43	=43	=43
!	!LO:LB:g=original	!	!	!	!	!	!	!	!	!	!	!	!	!	!	!	!
2.ryy	8d\L	.	4.dd\	.	4.ff#\	.	2.d/	2.dd\	.	8D\Lyy	.	8D\L	.	4.dd\	.	4.ff#\	.
.	8d\	.	.	.	.	.	.	.	.	8D\yy	.	8D\	.	.	.	.	.
.	8d\	.	.	.	.	.	.	.	.	8D\Jyy	.	8D\J	.	.	.	.	.
.	8d\	.	8ff#\L	.	8aa\L	.	.	.	.	8D\Lyy	.	8D\L	.	8ff#\L	.	8aa\L	.
.	8d\	.	8ee\	.	8gg\	.	.	.	.	8D\yy	.	8D\	.	8ee\	.	8gg\	.
.	8d\J	.	8ff#\J	.	8aa\J	.	.	.	.	8D\Jyy	.	8D\J	.	8ff#\J	.	8aa\J	.
=44	=44	=44	=44	=44	=44	=44	=44	=44	=44	=44	=44	=44	=44	=44	=44	=44	=44
2.ryy	8d\L	.	4.gg\	.	4.bb\	.	2.d/	[2.dd\	.	8D\Lyy	.	8D\L	.	4.gg\	.	4.bb\	.
.	8d\	.	.	.	.	.	.	.	.	8D\yy	.	8D\	.	.	.	.	.
.	8d\	.	.	.	.	.	.	.	.	8D\Jyy	.	8D\J	.	.	.	.	.
.	8d\	.	8ee\L	.	8gg\L	.	.	.	.	8D\Lyy	.	8D\L	.	8ee\L	.	8gg\L	.
.	8d\	.	8dd\	.	8ff#\	.	.	.	.	8D\yy	.	8D\	.	8dd\	.	8ff#\	.
.	8d\J	.	8ee\J	.	8gg\J	.	.	.	.	8D\Jyy	.	8D\J	.	8ee\J	.	8gg\J	.
*	*	*	*	*	*	*	*	*	*	*Xtremolo	*	*Xtremolo	*	*	*	*	*
=45	=45	=45	=45	=45	=45	=45	=45	=45	=45	=45	=45	=45	=45	=45	=45	=45	=45
!	!	!LO:DY:t=for	!	!	!	!LO:DY:t=fortif	!LO:LB:g=original	!LO:LB:g=original	!	!	!	!	!	!	!	!	!
2.ryy	4.d\	f	16ff#\LL	.	16ff#\LL	ff	4d/	4.dd\]	.	4.D\yy	f	4.D\	f	4.dd\	.	4.ff#\	.
.	.	.	16ddd\	.	16ddd\	.	.	.	.	.	.	.	.	.	.	.	.
.	.	.	16ddd\	.	16ddd\	.	.	.	.	.	.	.	.	.	.	.	.
.	.	.	16ddd\	.	16ddd\	.	.	.	.	.	.	.	.	.	.	.	.
.	.	.	16ddd\	.	16ddd\	.	8r	.	.	.	.	.	.	.	.	.	.
.	.	.	16ddd\JJ	.	16ddd\JJ	.	.	.	.	.	.	.	.	.	.	.	.
.	4.f#\	.	16ddd\LL	.	16ddd\LL	.	4.r	4.r	.	4.F#\yy	.	4.F#\	.	4.r	.	4.r	.
.	.	.	16ccc\	.	16ccc\	.	.	.	.	.	.	.	.	.	.	.	.
.	.	.	16bb\	.	16bb\	.	.	.	.	.	.	.	.	.	.	.	.
.	.	.	16aa\	.	16aa\	.	.	.	.	.	.	.	.	.	.	.	.
.	.	.	16gg\	.	16gg\	.	.	.	.	.	.	.	.	.	.	.	.
.	.	.	16ff#\JJ	.	16ff#\JJ	.	.	.	.	.	.	.	.	.	.	.	.
=46	=46	=46	=46	=46	=46	=46	=46	=46	=46	=46	=46	=46	=46	=46	=46	=46	=46
!	!	!	!	!	!LO:LB:g=original	!	!LO:TX:a:t=1	!	!	!LO:LB:g=original	!	!LO:LB:g=original	!	!LO:LB:g=original	!	!LO:LB:g=original	!
2.ryy	4.g\	.	16ee\LL	.	16ee\LL	.	2.r	2.r	.	4.G\yy	.	4.G\	.	2.r	.	2.r	.
.	.	.	16bb\	.	16bb\	.	.	.	.	.	.	.	.	.	.	.	.
.	.	.	16bb\	.	16bb\	.	.	.	.	.	.	.	.	.	.	.	.
.	.	.	16bb\	.	16bb\	.	.	.	.	.	.	.	.	.	.	.	.
.	.	.	16bb\	.	16bb\	.	.	.	.	.	.	.	.	.	.	.	.
.	.	.	16bb\JJ	.	16bb\JJ	.	.	.	.	.	.	.	.	.	.	.	.
!	!	!	!LO:LB:g=original	!	!	!	!	!	!	!	!	!	!	!	!	!	!
.	4.b\	.	16bb\LL	.	16bb\LL	.	.	.	.	4.GG/yy	.	4.GG/	.	.	.	.	.
.	.	.	16aa\	.	16aa\	.	.	.	.	.	.	.	.	.	.	.	.
.	.	.	16gg\	.	16gg\	.	.	.	.	.	.	.	.	.	.	.	.
.	.	.	16ff#\	.	16ff#\	.	.	.	.	.	.	.	.	.	.	.	.
.	.	.	16ee\	.	16ee\	.	.	.	.	.	.	.	.	.	.	.	.
.	.	.	16dd\JJ	.	16dd\JJ	.	.	.	.	.	.	.	.	.	.	.	.
=47	=47	=47	=47	=47	=47	=47	=47	=47	=47	=47	=47	=47	=47	=47	=47	=47	=47
!	!	!	!LO:TX:a:t=sic!:s=8cc#	!	!	!	!	!	!	!	!	!	!	!	!	!	!
2.ryy	4.a\	.	16cc\LL	.	16cc#X\LL	.	2.a\	2.ee\	.	4.AA/yy	.	4.AA/	.	2.ee\	.	2.gg\	.
.	.	.	16ee\	.	16ee\	.	.	.	.	.	.	.	.	.	.	.	.
.	.	.	16ee\	.	16ee\	.	.	.	.	.	.	.	.	.	.	.	.
.	.	.	16ee\	.	16ee\	.	.	.	.	.	.	.	.	.	.	.	.
.	.	.	16ee\	.	16ee\	.	.	.	.	.	.	.	.	.	.	.	.
.	.	.	16ee\JJ	.	16ee\JJ	.	.	.	.	.	.	.	.	.	.	.	.
!	!	!	!	!	!	!	!	!	!	!LO:TX:a:t=sic!:s=8cc#	!	!LO:TX:a:t=sic!:s=8cc#	!	!	!	!	!
.	4.A/	.	16ee\LL	.	16ee\LL	.	.	.	.	4.C/yy	.	4.C/	.	.	.	.	.
.	.	.	16dd\	.	16dd\	.	.	.	.	.	.	.	.	.	.	.	.
.	.	.	16cc\	.	16cc#\	.	.	.	.	.	.	.	.	.	.	.	.
.	.	.	16b\	.	16b\	.	.	.	.	.	.	.	.	.	.	.	.
.	.	.	16a\	.	16a\	.	.	.	.	.	.	.	.	.	.	.	.
.	.	.	16g\JJ	.	16g\JJ	.	.	.	.	.	.	.	.	.	.	.	.
=48	=48	=48	=48	=48	=48	=48	=48	=48	=48	=48	=48	=48	=48	=48	=48	=48	=48
!	!	!	!LO:TX:a:t=problem:mixed beam	!	!	!	!	!	!	!	!	!	!	!	!	!	!
2.ryy	4.d\	.	16f#/LL	.	8f#/L	.	4.d/	4.dd\	.	4.D/yy	.	4.D/	.	4.dd\	.	4.ff#\	.
.	.	.	16dd\	.	.	.	.	.	.	.	.	.	.	.	.	.	.
.	.	.	16dd\	.	8a/	.	.	.	.	.	.	.	.	.	.	.	.
.	.	.	16dd\	.	.	.	.	.	.	.	.	.	.	.	.	.	.
.	.	.	16dd\	.	8dd/J	.	.	.	.	.	.	.	.	.	.	.	.
.	.	.	16dd\JJ	.	.	.	.	.	.	.	.	.	.	.	.	.	.
*	*Xtremolo	*	*tremolo	*	*	*	*	*	*	*	*	*	*	*	*	*	*
.	4.r	.	16dd\LL	.	8ff#\L	.	4.r	4.r	.	4.ryy	.	4.r	.	4.r	.	4.r	.
.	.	.	16dd\	.	.	.	.	.	.	.	.	.	.	.	.	.	.
.	.	.	16dd\	.	8aa\	.	.	.	.	.	.	.	.	.	.	.	.
.	.	.	16dd\	.	.	.	.	.	.	.	.	.	.	.	.	.	.
.	.	.	16dd\	.	8ddd\J	.	.	.	.	.	.	.	.	.	.	.	.
.	.	.	16dd\JJ	.	.	.	.	.	.	.	.	.	.	.	.	.	.
=49	=49	=49	=49	=49	=49	=49	=49	=49	=49	=49	=49	=49	=49	=49	=49	=49	=49
2.ryy	8a\L	.	16dd\LL	.	4.a/	.	2.a\	2.a\	.	8A\Lyy	.	8A\L	.	4.dd\	.	4.ff#\	.
.	.	.	16dd\	.	.	.	.	.	.	.	.	.	.	.	.	.	.
.	8a\	.	16dd\	.	.	.	.	.	.	8A\yy	.	8A\	.	.	.	.	.
.	.	.	16dd\	.	.	.	.	.	.	.	.	.	.	.	.	.	.
.	8a\J	.	16dd\	.	.	.	.	.	.	8A\Jyy	.	8A\J	.	.	.	.	.
.	.	.	16dd\JJ	.	.	.	.	.	.	.	.	.	.	.	.	.	.
*	*tremolo	*	*	*	*	*	*	*	*	*tremolo	*	*tremolo	*	*	*	*	*
.	8a\L	.	16cc\LL	.	4.eeT\	.	.	.	.	8AA/Lyy	.	8AA/L	.	4.cc\	.	4.ee\	.
.	.	.	16cc\	.	.	.	.	.	.	.	.	.	.	.	.	.	.
.	8a\	.	16cc\	.	.	.	.	.	.	8AA/yy	.	8AA/	.	.	.	.	.
.	.	.	16cc\	.	.	.	.	.	.	.	.	.	.	.	.	.	.
.	8a\J	.	16cc\	.	.	.	.	.	.	8AA/Jyy	.	8AA/J	.	.	.	.	.
.	.	.	16cc\JJ	.	.	.	.	.	.	.	.	.	.	.	.	.	.
*	*Xtremolo	*	*	*	*	*	*	*	*	*Xtremolo	*	*Xtremolo	*	*	*	*	*
=50	=50	=50	=50	=50	=50	=50	=50	=50	=50	=50	=50	=50	=50	=50	=50	=50	=50
!	!	!	!	!	!	!LO:DY:t=f:	!	!	!	!	!	!	!	!	!	!	!
2.ryy	8d\L	f	16dd\LL	.	16ff#\LL	f	4.d/	4.dd\	.	8D\Lyy	.	8D\L	.	4.dd\	.	4.ff#\	.
.	.	.	16ddd\	.	16ddd\	.	.	.	.	.	.	.	.	.	.	.	.
.	8d\	.	16ddd\	.	16ddd\	.	.	.	.	8D\yy	.	8D\	.	.	.	.	.
.	.	.	16ddd\	.	16ddd\	.	.	.	.	.	.	.	.	.	.	.	.
.	8d\J	.	16ddd\	.	16ddd\	.	.	.	.	8D\Jyy	.	8D\J	.	.	.	.	.
.	.	.	16ddd\JJ	.	16ddd\JJ	.	.	.	.	.	.	.	.	.	.	.	.
*	*	*	*	*	*	*	*	*	*	*tremolo	*	*tremolo	*	*	*	*	*
.	8f#\L	.	16ddd\LL	.	16ddd\LL	.	4.r	4.r	.	8F#\Lyy	.	8F#\L	.	4.r	.	4.r	.
.	.	.	16ccc\	.	16ccc\	.	.	.	.	.	.	.	.	.	.	.	.
.	8f#\	.	16bb\	.	16bb\	.	.	.	.	8F#\yy	.	8F#\	.	.	.	.	.
.	.	.	16aa\	.	16aa\	.	.	.	.	.	.	.	.	.	.	.	.
.	8f#\J	.	16gg\	.	16gg\	.	.	.	.	8F#\Jyy	.	8F#\J	.	.	.	.	.
.	.	.	16ff#\JJ	.	16ff#\JJ	.	.	.	.	.	.	.	.	.	.	.	.
=51	=51	=51	=51	=51	=51	=51	=51	=51	=51	=51	=51	=51	=51	=51	=51	=51	=51
*	*tremolo	*	*	*	*	*	*	*	*	*	*	*	*	*	*	*	*
!	!	!	!LO:LB:g=original	!	!LO:LB:g=original	!	!LO:TX:a:t=1	!	!	!	!	!	!	!LO:LB:g=original	!	!LO:TX:a:t=1	!
!	!	!	!	!	!	!	!	!	!	!	!	!	!	!LO:TX:a:t=1	!	!	!
2.ryy	8g\L	.	16ee\LL	.	16ee\LL	.	2.r	2.r	.	8G\Lyy	.	8G\L	.	2.r	.	2.r	.
.	.	.	16bb\	.	16bb\	.	.	.	.	.	.	.	.	.	.	.	.
.	8g\	.	16bb\	.	16bb\	.	.	.	.	8G\yy	.	8G\	.	.	.	.	.
.	.	.	16bb\	.	16bb\	.	.	.	.	.	.	.	.	.	.	.	.
.	8g\J	.	16bb\	.	16bb\	.	.	.	.	8G\Jyy	.	8G\J	.	.	.	.	.
.	.	.	16bb\JJ	.	16bb\JJ	.	.	.	.	.	.	.	.	.	.	.	.
.	8g\L	.	16bb\LL	.	16bb\LL	.	.	.	.	8G\Lyy	.	8G\L	.	.	.	.	.
.	.	.	16aa\	.	16aa\	.	.	.	.	.	.	.	.	.	.	.	.
.	8g\	.	16gg\	.	16gg\	.	.	.	.	8G\yy	.	8G\	.	.	.	.	.
.	.	.	16ff#\	.	16ff#\	.	.	.	.	.	.	.	.	.	.	.	.
.	8g\J	.	16ee\	.	16ee\	.	.	.	.	8G\Jyy	.	8G\J	.	.	.	.	.
.	.	.	16dd\JJ	.	16dd\JJ	.	.	.	.	.	.	.	.	.	.	.	.
=52	=52	=52	=52	=52	=52	=52	=52	=52	=52	=52	=52	=52	=52	=52	=52	=52	=52
2.ryy	8a\L	.	16cc#X\LL	.	16cc#X\LL	.	2.a\	2.a\	.	8A\Lyy	.	8A\L	.	2.ee\	.	2.gg\	.
.	.	.	16ee\	.	16ee\	.	.	.	.	.	.	.	.	.	.	.	.
.	8a\	.	16ee\	.	16ee\	.	.	.	.	8A\yy	.	8A\	.	.	.	.	.
.	.	.	16ee\	.	16ee\	.	.	.	.	.	.	.	.	.	.	.	.
.	8a\J	.	16ee\	.	16ee\	.	.	.	.	8A\Jyy	.	8A\J	.	.	.	.	.
.	.	.	16ee\JJ	.	16ee\JJ	.	.	.	.	.	.	.	.	.	.	.	.
.	8a\L	.	16ee\LL	.	16ee\LL	.	.	.	.	8AA/Lyy	.	8AA/L	.	.	.	.	.
.	.	.	16dd\	.	16dd\	.	.	.	.	.	.	.	.	.	.	.	.
.	8a\	.	16cc#\	.	16cc#\	.	.	.	.	8AA/yy	.	8AA/	.	.	.	.	.
.	.	.	16b\	.	16b\	.	.	.	.	.	.	.	.	.	.	.	.
.	8a\J	.	16a\	.	16a\	.	.	.	.	8AA/Jyy	.	8AA/J	.	.	.	.	.
.	.	.	16g\JJ	.	16g\JJ	.	.	.	.	.	.	.	.	.	.	.	.
=53	=53	=53	=53	=53	=53	=53	=53	=53	=53	=53	=53	=53	=53	=53	=53	=53	=53
!	!LO:LB:g=original	!	!LO:TX:a:t=problem:mixed beam	!	!	!	!	!	!	!	!	!	!	!	!	!	!
2.ryy	4.d\	.	16f#/LL	.	8f#/L	.	4.d/	4.dd\	.	4.D\yy	.	4.D\	.	4.dd\	.	4.ff#\	.
.	.	.	16dd\	.	.	.	.	.	.	.	.	.	.	.	.	.	.
.	.	.	16dd\	.	8a/	.	.	.	.	.	.	.	.	.	.	.	.
.	.	.	16dd\	.	.	.	.	.	.	.	.	.	.	.	.	.	.
.	.	.	16dd\	.	8dd/J	.	.	.	.	.	.	.	.	.	.	.	.
.	.	.	16dd\JJ	.	.	.	.	.	.	.	.	.	.	.	.	.	.
.	8r	.	16dd\LL	.	8ff#\L	.	4.r	4.r	.	4.ryy	.	4.r	.	4.r	.	4.r	.
.	.	.	16dd\	.	.	.	.	.	.	.	.	.	.	.	.	.	.
.	8r	.	16dd\	.	8aa\	.	.	.	.	.	.	.	.	.	.	.	.
.	.	.	16dd\	.	.	.	.	.	.	.	.	.	.	.	.	.	.
.	8r	.	16dd\	.	8ddd\J	.	.	.	.	.	.	.	.	.	.	.	.
.	.	.	16dd\JJ	.	.	.	.	.	.	.	.	.	.	.	.	.	.
=54	=54	=54	=54	=54	=54	=54	=54	=54	=54	=54	=54	=54	=54	=54	=54	=54	=54
!	!	!	!	!	!	!	!	!LO:LB:g=original	!	!	!	!	!	!	!	!	!
!	!	!	!	!	!	!	!LO:N:vis=1	!LO:N:vis=1	!	!	!	!	!	!	!	!	!
2.ryy	8a\L	.	16dd\LL	.	4.a/	.	2.a\	2.a\	.	8A\Lyy	.	8A\L	.	4.ee\	.	4.ff#\	.
.	.	.	16dd\	.	.	.	.	.	.	.	.	.	.	.	.	.	.
.	8a\	.	16dd\	.	.	.	.	.	.	8A\yy	.	8A\	.	.	.	.	.
.	.	.	16dd\	.	.	.	.	.	.	.	.	.	.	.	.	.	.
.	8a\J	.	16dd\	.	.	.	.	.	.	8A\Jyy	.	8A\J	.	.	.	.	.
.	.	.	16dd\JJ	.	.	.	.	.	.	.	.	.	.	.	.	.	.
!	!	!	!	!	!LO:TX:a:t=t	!	!	!	!	!	!	!	!	!LO:TX:a:t=t	!	!	!
.	8A/L	.	16cc#X\LL	.	4.ee\	.	.	.	.	8AA/Lyy	.	8AA/L	.	4.cc#X\	.	4.ee\	.
.	.	.	16cc#\	.	.	.	.	.	.	.	.	.	.	.	.	.	.
.	8A/	.	16cc#\	.	.	.	.	.	.	8AA/yy	.	8AA/	.	.	.	.	.
.	.	.	16cc#\	.	.	.	.	.	.	.	.	.	.	.	.	.	.
.	8A/J	.	16cc#\	.	.	.	.	.	.	8AA/Jyy	.	8AA/J	.	.	.	.	.
.	.	.	16cc#\JJ	.	.	.	.	.	.	.	.	.	.	.	.	.	.
*	*Xtremolo	*	*Xtremolo	*	*	*	*	*	*	*Xtremolo	*	*Xtremolo	*	*	*	*	*
=55	=55	=55	=55	=55	=55	=55	=55	=55	=55	=55	=55	=55	=55	=55	=55	=55	=55
!	!	!	!	!	!	!	!LO:LB:g=original	!	!	!LO:LB:g=original	!	!LO:LB:g=original	!	!	!	!LO:LB:g=original	!
2.ryy	4.d\	.	4.dd\	.	4.dd\	.	4.d/	4.dd\	.	4.D\yy	.	4.D\	.	8dd\L	.	8dd\L	.
.	.	.	.	.	.	.	.	.	.	.	.	.	.	16ff#\L	.	16aa\L	.
.	.	.	.	.	.	.	.	.	.	.	.	.	.	16gg\J	.	16bb\J	.
.	.	.	.	.	.	.	.	.	.	.	.	.	.	8ff#\J	.	8aa\J	.
!	!	!	!LO:LB:g=original	!	!	!	!	!	!	!	!	!	!	!	!	!	!
.	8r	.	8r	.	8r	.	8r	8r	.	8ryy	.	8r	.	8ee\L	.	8gg\L	.
.	8r	.	8r	.	8r	.	8r	8r	.	8ryy	.	8r	.	8dd\	.	8ff#\	.
!	!	!	!LO:TX:a:t=sic!:s=8c#	!	!	!	!	!	!	!	!	!	!	!	!	!	!
.	8a\	.	8c/ 8a 8ee	.	8ee\ 8ccc#X	.	8a\	8ee\	.	8AA/yy	.	8AA/	.	8cc#X\J	.	8ee\J	.
=56	=56	=56	=56	=56	=56	=56	=56	=56	=56	=56	=56	=56	=56	=56	=56	=56	=56
!	!	!	!	!	!LO:LB:g=original	!	!LO:N:vis=4	!LO:N:vis=4	!	!	!	!	!	!	!	!	!
2.ryy	4.a\	.	4.d/ 4.a 4.ff#	.	4.ff#\ 4.ddd	.	4.d/	4.dd\	.	4.D\yy	.	4.D\	.	8dd\L	.	8dd\L	.
.	.	.	.	.	.	.	.	.	.	.	.	.	.	16ff#\L	.	16aa\L	.
.	.	.	.	.	.	.	.	.	.	.	.	.	.	16gg\J	.	16bb\J	.
.	.	.	.	.	.	.	.	.	.	.	.	.	.	8ff#\J	.	8aa\J	.
.	8r	.	8r	.	8r	.	8r	8r	.	8ryy	.	8r	.	8ee\L	.	8gg\L	.
.	8r	.	8r	.	8r	.	8r	8r	.	8ryy	.	8r	.	8dd\	.	8ff#\	.
!	!	!	!	!	!	!	!	!	!	!	!	!	!	!LO:TX:a:t=sic!:s=8cc#	!	!	!
.	8a\	.	8a/ 8ee	.	8ee\ 8ccc#X	.	8a\	8a\	.	8AA/yy	.	8AA/	.	8cc\J	.	8ee\J	.
=57	=57	=57	=57	=57	=57	=57	=57	=57	=57	=57	=57	=57	=57	=57	=57	=57	=57
2.ryy	8d\L 8a	.	8d/L 8a 8ff#	.	8ff#\L 8ddd	.	8d/L	8dd\L	.	8D/Lyy	.	8D/L	.	8dd\L	.	8ff#\L	.
.	8d\ 8a	.	8d/ 8a 8ff#	.	8ff#\ 8ddd	.	8d/	8dd\	.	8AA/yy	.	8AA/	.	8dd\	.	8ff#\	.
.	8d\J 8a	.	8d/J 8a 8ff#	.	8ff#\J 8ddd	.	8d/J	8dd\J	.	8FF#/Jyy	.	8FF#/J	.	8ff#\J	.	8aa\J	.
.	4.d\ 4.a	.	4.d/ 4.a 4.ff#	.	4.ff#\ 4.ddd	.	4.d/	4.dd\	.	4.DD/yy	.	4.DD/	.	4.dd\	.	4.ff#\	.
=58:|!|:	=58:|!|:	=58:|!|:	=58:|!|:	=58:|!|:	=58:|!|:	=58:|!|:	=58:|!|:	=58:|!|:	=58:|!|:	=58:|!|:	=58:|!|:	=58:|!|:	=58:|!|:	=58:|!|:	=58:|!|:	=58:|!|:	=58:|!|:
*>B	*>B	*	*>B	*	*>B	*	*>B	*>B	*	*>B	*	*>B	*	*>B	*	*>B	*
!	!	!	!	!	!	!	!LO:TX:a:t=14	!LO:TX:a:t=14	!	!	!	!	!	!LO:TX:a:t=12	!	!LO:TX:a:t=12	!
!	!	!	!LO:N:vis=4	!LO:DY:t=for	!	!	!LO:N:vis=00	!LO:N:vis=00	!	!	!	!	!	!LO:N:vis=00	!	!LO:N:vis=00	!
2.ryy	8d\L	f	4.d/ 4.dd	f	4.A/ 4.f# 4.dd	f	0.r	0.r	.	4.D\yy	.	4.D\	.	0.r	.	0.r	.
.	8d\	.	.	.	.	.	.	.	.	.	.	.	.	.	.	.	.
.	8d\J	.	.	.	.	.	.	.	.	.	.	.	.	.	.	.	.
*	*tremolo	*	*	*	*	*	*	*	*	*	*	*	*	*	*	*	*
!	!	!	!	!	!	!LO:TX:a:t=p	!	!	!	!	!	!	!	!	!	!	!
.	8d\L	p	8d/L	p	8d/L	p	.	.	.	4.ryy	.	4.r	.	.	.	.	.
.	8d\	.	8e/	.	8e/	.	.	.	.	.	.	.	.	.	.	.	.
.	8d\J	.	8f#/J	.	8f#/J	.	.	.	.	.	.	.	.	.	.	.	.
=59	=59	=59	=59	=59	=59	=59	=59	=59	=59	=59	=59	=59	=59	=59	=59	=59	=59
!	!	!	!	!	!	!	!	!	!	!LO:TX:a:t=1	!	!LO:TX:a:t=1	!	!	!	!	!
2.ryy	8d\L	.	4e/	.	4e/	.	.	.	.	2.ryy	.	2.r	.	.	.	.	.
.	8d\	.	.	.	.	.	.	.	.	.	.	.	.	.	.	.	.
.	8d\J	.	8d/	.	8d/	.	.	.	.	.	.	.	.	.	.	.	.
.	8d\L	.	4e/	.	4e/	.	.	.	.	.	.	.	.	.	.	.	.
.	8d\	.	.	.	.	.	.	.	.	.	.	.	.	.	.	.	.
.	8d\J	.	8d/	.	8d/	.	.	.	.	.	.	.	.	.	.	.	.
=60	=60	=60	=60	=60	=60	=60	=60	=60	=60	=60	=60	=60	=60	=60	=60	=60	=60
!	!	!	!	!	!	!LO:DY:t=fr	!	!	!	!	!	!	!	!	!	!	!
2.ryy	8d\L	f	4.d/ 4.dd	f	4.f#/ 4.dd	f	.	.	.	4.D\	.	4.D\	.	.	.	.	.
.	8d\	.	.	.	.	.	.	.	.	.	.	.	.	.	.	.	.
.	8d\J	.	.	.	.	.	.	.	.	.	.	.	.	.	.	.	.
!	!	!	!	!	!	!LO:DY:p	!	!	!	!	!	!	!	!	!	!	!
.	8d\L	.	8d/L	p	8f#/L	p	.	.	.	4.r	.	4.r	.	.	.	.	.
.	8d\	.	8e/	.	8g/	.	.	.	.	.	.	.	.	.	.	.	.
.	8d\J	.	8f#/J	.	8a/J	.	.	.	.	.	.	.	.	.	.	.	.
=61	=61	=61	=61	=61	=61	=61	=61	=61	=61	=61	=61	=61	=61	=61	=61	=61	=61
.	.	.	.	.	8qqa/	.	.	.	.	.	.	.	.	.	.	.	.
!	!	!	!	!	!	!	!	!	!	!LO:TX:a:t=1	!	!LO:TX:a:t=1	!	!	!	!	!
2.ryy	8d\L	.	4e/	.	4g/	.	.	.	.	2.r	.	2.r	.	.	.	.	.
.	8d\	.	.	.	.	.	.	.	.	.	.	.	.	.	.	.	.
.	8d\J	.	8d/	.	8f#/	.	.	.	.	.	.	.	.	.	.	.	.
.	.	.	.	.	8qqa/	.	.	.	.	.	.	.	.	.	.	.	.
.	8d\L	.	4e/	.	4g/	.	.	.	.	.	.	.	.	.	.	.	.
.	8d\	.	.	.	.	.	.	.	.	.	.	.	.	.	.	.	.
.	8d\J	.	8d/	.	8f#/	.	.	.	.	.	.	.	.	.	.	.	.
*	*Xtremolo	*	*	*	*	*	*	*	*	*	*	*	*	*	*	*	*
=62	=62	=62	=62	=62	=62	=62	=62	=62	=62	=62	=62	=62	=62	=62	=62	=62	=62
!	!LO:LB:g=original	!	!	!	!LO:LB:g=original	!LO:DY:t=f	!LO:N:vis=00	!LO:N:vis=00	!	!	!LO:DY:t=f	!	!LO:DY:t=f	!LO:N:vis=00	!	!LO:N:vis=00	!
2.ryy	8d#X\L	f	4.a/	f	4.ccn\	f	0.r	0.r	.	4.D#X\	f	4.D#X\	f	0.r	.	0.r	.
.	8d#\	.	.	.	.	.	.	.	.	.	.	.	.	.	.	.	.
.	8d#\J	.	.	.	.	.	.	.	.	.	.	.	.	.	.	.	.
!	!	!	!	!	!	!LO:DY:t=p	!	!	!	!	!	!	!	!	!	!	!
.	8d#\L	p	8a/L	p	8cc\L	p	.	.	.	4.r	.	4.r	.	.	.	.	.
.	8d#\	.	8g/	.	8b\	.	.	.	.	.	.	.	.	.	.	.	.
.	8d#\J	.	8f#/J	.	8a\J	.	.	.	.	.	.	.	.	.	.	.	.
=63	=63	=63	=63	=63	=63	=63	=63	=63	=63	=63	=63	=63	=63	=63	=63	=63	=63
*	*tremolo	*	*	*	*	*	*	*	*	*	*	*	*	*	*	*	*
!	!	!	!LO:LB:g=original	!	!	!LO:DY:f	!	!	!	!	!	!	!	!	!	!	!
2.ryy	8e\L	f	4.g/	f	4.g/	f	.	.	.	4.E\	.	4.E\	.	.	.	.	.
.	8e\	.	.	.	.	.	.	.	.	.	.	.	.	.	.	.	.
.	8e\J	.	.	.	.	.	.	.	.	.	.	.	.	.	.	.	.
!	!	!	!	!	!	!LO:DY:t=p	!	!	!	!	!	!	!	!	!	!	!
.	8e\L	p	8g/L	p	8g/L	p	.	.	.	4.r	.	4.r	.	.	.	.	.
.	8e\	.	8a/	.	8a/	.	.	.	.	.	.	.	.	.	.	.	.
.	8e\J	.	8b/J	.	8b/J	.	.	.	.	.	.	.	.	.	.	.	.
=64	=64	=64	=64	=64	=64	=64	=64	=64	=64	=64	=64	=64	=64	=64	=64	=64	=64
!	!	!	!	!	!	!LO:DY:t=f	!	!	!	!	!	!	!	!	!	!	!
2.ryy	8d#X\L	.	4.a/	f	4.cc\	f	.	.	.	4.D#X\	.	4.D#X\	.	.	.	.	.
.	8d#\	.	.	.	.	.	.	.	.	.	.	.	.	.	.	.	.
.	8d#\J	.	.	.	.	.	.	.	.	.	.	.	.	.	.	.	.
!	!	!	!	!	!	!LO:DY:t=p	!	!	!	!	!	!	!	!	!	!	!
.	8d#\L	.	8a/L	p	8cc\L	p	.	.	.	4.r	.	4.r	.	.	.	.	.
.	8d#\	.	8g/	.	8b\	.	.	.	.	.	.	.	.	.	.	.	.
.	8d#\J	.	8f#/J	.	8a\J	.	.	.	.	.	.	.	.	.	.	.	.
=65	=65	=65	=65	=65	=65	=65	=65	=65	=65	=65	=65	=65	=65	=65	=65	=65	=65
!	!LO:TX:a:t=problem:mixed beam	!	!	!	!	!	!	!	!	!LO:LB:g=original	!	!LO:LB:g=original	!	!	!	!	!
2.ryy	8e/L	.	4e/	.	4g/	.	.	.	.	4E\	.	4E\	.	.	.	.	.
.	8b/	.	.	.	.	.	.	.	.	.	.	.	.	.	.	.	.
.	8B\J	.	8B/	.	8f#/	.	.	.	.	8B\	.	8B\	.	.	.	.	.
.	4e\	.	4e/	.	4e/	.	.	.	.	8E\L	.	8E\L	.	.	.	.	.
.	.	.	.	.	.	.	.	.	.	8BB\	.	8BB\	.	.	.	.	.
.	8r	.	8r	.	8r	.	.	.	.	8GG\J	.	8GG\J	.	.	.	.	.
=66	=66	=66	=66	=66	=66	=66	=66	=66	=66	=66	=66	=66	=66	=66	=66	=66	=66
!	!LO:N:vis=4	!	!	!LO:DY:t=for	!	!LO:DY:t=f	!LO:N:vis=00	!LO:N:vis=00	!	!LO:TX:a:t=problem:mixed beam	!	!LO:TX:a:t=problem:mixed beam	!	!LO:N:vis=00	!	!LO:N:vis=00	!
2.ryy	4.e\	.	4.e\ 4.ee	f	4.e/ 4.b 4.ee	f	0.r	0.r	.	8EE/L	.	8EE/L	.	0.r	.	0.r	.
.	.	.	.	.	.	.	.	.	.	8E\	.	8E\	.	.	.	.	.
.	.	.	.	.	.	.	.	.	.	8E\	.	8E\	.	.	.	.	.
!	!	!	!	!	!	!LO:DY:t=p	!	!	!	!	!	!	!	!	!	!	!
.	8G/L	.	8e/L	.	8e/L	p	.	.	.	8E\J	.	8E\J	.	.	.	.	.
.	8A/	.	8f#/	.	8f#/	.	.	.	.	8E\yy	.	8E\yy	.	.	.	.	.
.	8B/J	.	8g/J	.	8g/J	.	.	.	.	8E\yy	.	8E\yy	.	.	.	.	.
=67	=67	=67	=67	=67	=67	=67	=67	=67	=67	=67	=67	=67	=67	=67	=67	=67	=67
*	*	*	*	*	*	*	*	*	*	*tremolo	*	*tremolo	*	*	*	*	*
2.ryy	4A/	.	4f#/	.	4f#/	.	.	.	.	8E\L	.	8E\L	.	.	.	.	.
.	.	.	.	.	.	.	.	.	.	8E\	.	8E\	.	.	.	.	.
.	8G/	.	8e/	.	8e/	.	.	.	.	8E\J	.	8E\J	.	.	.	.	.
.	4A/	.	4f#/	.	4f#/	.	.	.	.	8E\L	.	8E\L	.	.	.	.	.
.	.	.	.	.	.	.	.	.	.	8E\	.	8E\	.	.	.	.	.
.	8G/	.	8e/	.	8e/	.	.	.	.	8E\J	.	8E\J	.	.	.	.	.
=68	=68	=68	=68	=68	=68	=68	=68	=68	=68	=68	=68	=68	=68	=68	=68	=68	=68
!	!	!	!	!	!	!LO:DY:t=f	!	!	!	!	!	!	!	!	!	!	!
2.ryy	8e\L	.	4.e/ 4.ee	.	4.e/ 4.ee	f	.	.	.	8E\L	.	8E\L	.	.	.	.	.
.	8e\	.	.	.	.	.	.	.	.	8E\	.	8E\	.	.	.	.	.
.	8e\J	.	.	.	.	.	.	.	.	8E\J	.	8E\J	.	.	.	.	.
.	8e\L	.	8e/L	p	8g/L	.	.	.	.	8E\L	.	8E\L	.	.	.	.	.
.	8e\	.	8f#/	.	8a/	.	.	.	.	8E\	.	8E\	.	.	.	.	.
!	!	!	!	!	!	!LO:DY:t=p	!	!	!	!	!	!	!	!	!	!	!
.	8e\J	.	8g/J	.	8b/J	p	.	.	.	8E\J	.	8E\J	.	.	.	.	.
=69	=69	=69	=69	=69	=69	=69	=69	=69	=69	=69	=69	=69	=69	=69	=69	=69	=69
2.ryy	8e\L	.	4f#/	.	4a/	.	.	.	.	8E\L	.	8E\L	.	.	.	.	.
.	8e\	.	.	.	.	.	.	.	.	8E\	.	8E\	.	.	.	.	.
.	8e\J	.	8e/	.	8g/	.	.	.	.	8E\J	.	8E\J	.	.	.	.	.
.	8e\L	.	4f#/	.	4a/	.	.	.	.	8E\L	.	8E\L	.	.	.	.	.
.	8e\	.	.	.	.	.	.	.	.	8E\	.	8E\	.	.	.	.	.
.	8e\J	.	8e/	.	8g/	.	.	.	.	8E\J	.	8E\J	.	.	.	.	.
*	*Xtremolo	*	*	*	*	*	*	*	*	*Xtremolo	*	*Xtremolo	*	*	*	*	*
=70	=70	=70	=70	=70	=70	=70	=70	=70	=70	=70	=70	=70	=70	=70	=70	=70	=70
!	!	!	!	!LO:DY:t=fort	!LO:LB:g=original	!LO:DY:t=fortef:	!LO:N:vis=0	!LO:N:vis=0	!	!	!	!	!	!LO:LB:g=original	!	!	!
2.ryy	4g#X\	.	16ee\LL	f	16ee\LL 16ddd	ff	1.r	1.r	.	4G#X\yy	.	4G#X\	.	2.e/	.	2.dd\	.
.	.	.	16bb\	.	16ee\ 16ddd	.	.	.	.	.	.	.	.	.	.	.	.
.	.	.	16bb\	.	16ee\ 16ddd	.	.	.	.	.	.	.	.	.	.	.	.
.	.	.	16bb\	.	16ee\ 16ddd	.	.	.	.	.	.	.	.	.	.	.	.
.	16b\LL	.	16bb\	.	16ee\ 16ddd	.	.	.	.	16B\LLyy	.	16B\LL	.	.	.	.	.
.	16a\JJ	.	16bb\JJ	.	16ee\JJ 16ddd	.	.	.	.	16A\JJyy	.	16A\JJ	.	.	.	.	.
*	*	*	*tremolo	*	*tremolo	*	*	*	*	*	*	*	*	*	*	*	*
!	!LO:LB:g=original	!	!LO:LB:g=original	!	!	!	!	!	!	!	!	!	!	!	!	!	!
.	8g#X\L	.	16bb\LL	.	16ee\LL 16ddd	.	.	.	.	8G#\Lyy	.	8G#\L	.	.	.	.	.
.	.	.	16bb\	.	16ee\ 16ddd	.	.	.	.	.	.	.	.	.	.	.	.
.	8f#X\	.	16bb\	.	16ee\ 16ddd	.	.	.	.	8F#X\yy	.	8F#X\	.	.	.	.	.
.	.	.	16bb\	.	16ee\ 16ddd	.	.	.	.	.	.	.	.	.	.	.	.
.	8e\J	.	16bb\	.	16ee\ 16ddd	.	.	.	.	8E\Jyy	.	8E\J	.	.	.	.	.
.	.	.	16bb\JJ	.	16ee\JJ 16ddd	.	.	.	.	.	.	.	.	.	.	.	.
=71	=71	=71	=71	=71	=71	=71	=71	=71	=71	=71	=71	=71	=71	=71	=71	=71	=71
2.ryy	8a\L	.	16aa\LL	.	16ee\LL 16ccc	.	.	.	.	8A\Lyy	.	8A\L	.	2.e/	.	2.ccn\	.
.	.	.	16aa\	.	16ee\ 16ccc	.	.	.	.	.	.	.	.	.	.	.	.
.	8e\	.	16aa\	.	16ee\ 16ccc	.	.	.	.	8E\yy	.	8E\	.	.	.	.	.
.	.	.	16aa\	.	16ee\ 16ccc	.	.	.	.	.	.	.	.	.	.	.	.
.	8dn\J	.	16aa\	.	16ee\ 16ccc	.	.	.	.	8D\Jyy	.	8D\J	.	.	.	.	.
.	.	.	16aa\	.	16ee\ 16ccc	.	.	.	.	.	.	.	.	.	.	.	.
.	8cn\L	.	16aa\	.	16ee\ 16ccc	.	.	.	.	8Cn/Lyy	.	8Cn/L	.	.	.	.	.
.	.	.	16aa\	.	16ee\ 16ccc	.	.	.	.	.	.	.	.	.	.	.	.
.	8B\	.	16aa\	.	16ee\ 16ccc	.	.	.	.	8BB/yy	.	8BB/	.	.	.	.	.
.	.	.	16aa\	.	16ee\ 16ccc	.	.	.	.	.	.	.	.	.	.	.	.
.	8A\J	.	16aa\	.	16ee\ 16ccc	.	.	.	.	8AA/Jyy	.	8AA/J	.	.	.	.	.
.	.	.	16aa\JJ	.	16ee\JJ 16ccc	.	.	.	.	.	.	.	.	.	.	.	.
=72	=72	=72	=72	=72	=72	=72	=72	=72	=72	=72	=72	=72	=72	=72	=72	=72	=72
!	!	!	!	!	!	!	!	!	!	!LO:LB:g=original	!	!LO:LB:g=original	!	!	!	!	!
2.ryy	4f#X\	.	16dd\LL 16aa	.	16dd\LL 16ccc	.	2.d/	2.a\	.	4F#X\yy	.	4F#X\	.	2.d/	.	2.cc\	.
.	.	.	16dd\ 16aa	.	16dd\ 16ccc	.	.	.	.	.	.	.	.	.	.	.	.
.	.	.	16dd\ 16aa	.	16dd\ 16ccc	.	.	.	.	.	.	.	.	.	.	.	.
.	.	.	16dd\ 16aa	.	16dd\ 16ccc	.	.	.	.	.	.	.	.	.	.	.	.
.	(16a\LL	.	16dd\ 16aa	.	16dd\ 16ccc	.	.	.	.	(16A\LLyy	.	(16A\LL	.	.	.	.	.
.	16g\JJ)	.	16dd\ 16aa	.	16dd\ 16ccc	.	.	.	.	16G\JJ)yy	.	16G\JJ)	.	.	.	.	.
.	8f#X'\L	.	16dd\ 16aa	.	16dd\ 16ccc	.	.	.	.	8F#X'\Lyy	.	8F#X'\L	.	.	.	.	.
.	.	.	16dd\ 16aa	.	16dd\ 16ccc	.	.	.	.	.	.	.	.	.	.	.	.
.	8e'\	.	16dd\ 16aa	.	16dd\ 16ccc	.	.	.	.	8E'\yy	.	8E'\	.	.	.	.	.
.	.	.	16dd\ 16aa	.	16dd\ 16ccc	.	.	.	.	.	.	.	.	.	.	.	.
.	8d'\J	.	16dd\ 16aa	.	16dd\ 16ccc	.	.	.	.	8D'\Jyy	.	8D'\J	.	.	.	.	.
.	.	.	16dd\JJ 16aa	.	16dd\JJ 16ccc	.	.	.	.	.	.	.	.	.	.	.	.
=73	=73	=73	=73	=73	=73	=73	=73	=73	=73	=73	=73	=73	=73	=73	=73	=73	=73
2.ryy	8g'\L	.	16gg\LL	.	16dd\LL 16bb	.	2.g\	2.b\	.	8G\Lyy	.	8G\L	.	2.d/	.	2.b\	.
.	.	.	16gg\	.	16dd\ 16bb	.	.	.	.	.	.	.	.	.	.	.	.
.	8d'\	.	16gg\	.	16dd\ 16bb	.	.	.	.	8D\yy	.	8D\	.	.	.	.	.
.	.	.	16gg\	.	16dd\ 16bb	.	.	.	.	.	.	.	.	.	.	.	.
.	8c'\	.	16gg\	.	16dd\ 16bb	.	.	.	.	8C\Jyy	.	8C\J	.	.	.	.	.
.	.	.	16gg\	.	16dd\ 16bb	.	.	.	.	.	.	.	.	.	.	.	.
.	8B\	.	16gg\	.	16dd\ 16bb	.	.	.	.	8BB/Lyy	.	8BB/L	.	.	.	.	.
.	.	.	16gg\	.	16dd\ 16bb	.	.	.	.	.	.	.	.	.	.	.	.
.	8A\	.	16gg\	.	16dd\ 16bb	.	.	.	.	8AA/yy	.	8AA/	.	.	.	.	.
.	.	.	16gg\	.	16dd\ 16bb	.	.	.	.	.	.	.	.	.	.	.	.
.	8G\J	.	16gg\	.	16dd\ 16bb	.	.	.	.	8GG/Jyy	.	8GG/J	.	.	.	.	.
.	.	.	16gg\JJ	.	16dd\JJ 16bb	.	.	.	.	.	.	.	.	.	.	.	.
=74	=74	=74	=74	=74	=74	=74	=74	=74	=74	=74	=74	=74	=74	=74	=74	=74	=74
!	!	!	!	!	!	!	!	!LO:TX:a:t=1	!	!	!	!	!	!	!	!	!
2.ryy	8c\L	.	16e/LL 16ee	.	16aa\LL	.	2.r	2.r	.	8C/Lyy	.	8C/L	.	2.e/	.	4.a/	.
.	.	.	16e/ 16ee	.	16aa\	.	.	.	.	.	.	.	.	.	.	.	.
.	8c\	.	16e/ 16ee	.	16aa\	.	.	.	.	8BB/yy	.	8BB/	.	.	.	.	.
.	.	.	16e/ 16ee	.	16aa\	.	.	.	.	.	.	.	.	.	.	.	.
.	8c\J	.	16e/ 16ee	.	16aa\	.	.	.	.	8C/Jyy	.	8C/J	.	.	.	.	.
.	.	.	16e/ 16ee	.	16aa\JJ	.	.	.	.	.	.	.	.	.	.	.	.
.	8c#X\L	.	16e/ 16ee	.	16gg\LL	.	.	.	.	8C#X/Lyy	.	8C#X/L	.	.	.	4.g/	.
.	.	.	16e/ 16ee	.	16gg\	.	.	.	.	.	.	.	.	.	.	.	.
.	8c#\	.	16e/ 16ee	.	16gg\	.	.	.	.	8BB/yy	.	8BB/	.	.	.	.	.
.	.	.	16e/ 16ee	.	16gg\	.	.	.	.	.	.	.	.	.	.	.	.
.	8c#\J	.	16e/ 16ee	.	16gg\	.	.	.	.	8C#/Jyy	.	8C#/J	.	.	.	.	.
.	.	.	16e/JJ 16ee	.	16gg\JJ	.	.	.	.	.	.	.	.	.	.	.	.
*	*	*	*Xtremolo	*	*Xtremolo	*	*	*	*	*	*	*	*	*	*	*	*
=75	=75	=75	=75	=75	=75	=75	=75	=75	=75	=75	=75	=75	=75	=75	=75	=75	=75
!	!	!	!	!	!	!	!	!LO:LB:g=original	!	!	!	!	!	!	!	!LO:LB:g=original	!
2.ryy	4d\	.	16ff#\LL	.	16ff#\LL	.	4d/	4dd\	.	4D/yy	.	4D/	.	4.d/	.	4.f#/	.
.	.	.	16dd\	.	16dd\	.	.	.	.	.	.	.	.	.	.	.	.
.	.	.	16ee\	.	16ee\	.	.	.	.	.	.	.	.	.	.	.	.
.	.	.	16ff#\	.	16ff#\	.	.	.	.	.	.	.	.	.	.	.	.
.	8r	.	16gg\	.	16gg\	.	8r	8r	.	8ryy	.	8r	.	.	.	.	.
.	.	.	16aa\JJ	.	16aa\JJ	.	.	.	.	.	.	.	.	.	.	.	.
.	4d\	.	16bb\LL	.	16bb\LL	.	4.r	4.r	.	4D/yy	.	4D/	.	4.r	.	8r	.
.	.	.	16ff#\	.	16ff#\	.	.	.	.	.	.	.	.	.	.	.	.
.	.	.	16gg\	.	16gg\	.	.	.	.	.	.	.	.	.	.	4r	.
.	.	.	16aa\	.	16aa\	.	.	.	.	.	.	.	.	.	.	.	.
.	8r	.	16bb\	.	16bb\	.	.	.	.	8ryy	.	8r	.	.	.	.	.
.	.	.	16ccc#X\JJ	.	16ccc#X\JJ	.	.	.	.	.	.	.	.	.	.	.	.
=76	=76	=76	=76	=76	=76	=76	=76	=76	=76	=76	=76	=76	=76	=76	=76	=76	=76
!	!	!	!LO:PB:g=original	!	!LO:PB:g=original	!	!LO:LB:g=original	!	!	!	!	!	!	!LO:TX:a:t=1	!	!LO:TX:a:t=1	!
2.ryy	8dd\L	.	8ddd\L	.	8ddd\L	.	2.d/	2.dd\	.	8d\Lyy	.	8d\L	.	2.r	.	2.r	.
!	!	!	!LO:TX:a:t=sic!:s=8ccc#	!	!	!	!	!	!	!	!	!	!	!	!	!	!
.	16cc#X\L	.	16ccc\L	.	16ccc#X\L	.	.	.	.	16c#X\Lyy	.	16c#X\L	.	.	.	.	.
.	16b\	.	16bb\	.	16bb\	.	.	.	.	16B\yy	.	16B\	.	.	.	.	.
.	16a\	.	16aa\	.	16aa\	.	.	.	.	16A\yy	.	16A\	.	.	.	.	.
.	16g\JJ	.	16gg\JJ	.	16gg\JJ	.	.	.	.	16G\JJyy	.	16G\JJ	.	.	.	.	.
.	16f#\LL	.	16ff#\LL	.	16ff#\LL	.	.	.	.	16F#\LLyy	.	16F#\LL	.	.	.	.	.
.	16b\	.	16bb\	.	16bb\	.	.	.	.	16B\yy	.	16B\	.	.	.	.	.
.	16a\	.	16aa\	.	16aa\	.	.	.	.	16A\yy	.	16A\	.	.	.	.	.
.	16g\	.	16gg\	.	16gg\	.	.	.	.	16G\yy	.	16G\	.	.	.	.	.
.	16f#\	.	16ff#\	.	16ff#\	.	.	.	.	16F#\yy	.	16F#\	.	.	.	.	.
.	16e\JJ	.	16ee\JJ	.	16ee\JJ	.	.	.	.	16E\JJyy	.	16E\JJ	.	.	.	.	.
=77	=77	=77	=77	=77	=77	=77	=77	=77	=77	=77	=77	=77	=77	=77	=77	=77	=77
!	!LO:LB:g=original	!	!	!	!	!	!	!	!	!	!	!	!	!	!	!	!
2.ryy	8d\L	.	8dd\L	.	8dd\L	.	8d/L	8dd\L	.	8D/Lyy	.	8D/L	.	8dd\L	.	8dd`\L	.
.	8A\	.	8a\	.	8a\	.	8d/	8dd\	.	8AA/yy	.	8AA/	.	8dd\	.	8ff#`\	.
.	8F#X\J	.	8f#\J	.	8f#\J	.	8d/J	8dd\J	.	8FF#/Jyy	.	8FF#/J	.	8dd\J	.	8ff#\J	.
.	4.D/	.	4.d/	.	4.d/	.	4.d/	4.dd\	.	4.DD/yy	.	4.DD/	.	4.dd\	.	4.ff#\	.
=78	=78	=78	=78	=78	=78	=78	=78	=78	=78	=78	=78	=78	=78	=78	=78	=78	=78
!	!	!	!	!	!	!	!LO:TX:a:t=11	!LO:TX:a:t=11	!	!	!LO:DY:t=p	!	!LO:DY:t=p	!	!	!	!
!	!	!	!	!	!	!LO:DY:t=p	!LO:N:vis=00	!LO:N:vis=00	!	!	!	!	!	!	!	!	!
2.ryy	4.G/	p	4b\	p	4dd\	p	0.r	0.r	.	4.GG/yy	p	4.GG/	p	4b/	.	4dd\	.
.	.	.	8a\	.	8cc\	.	.	.	.	.	.	.	.	8a/	.	8ccn\	.
!	!	!	!LO:TX:b:t=dolce	!	!	!	!	!	!	!	!	!	!	!	!	!	!
.	4.g\	.	8g/L	.	(8b\L	.	.	.	.	4.G\yy	.	4.G\	.	(8g/L	.	(8b\L	.
.	.	.	8f#/	.	8a\)	.	.	.	.	.	.	.	.	8f#/)	.	8a\)	.
.	.	.	8g/J	.	8b`\J	.	.	.	.	.	.	.	.	8g`/J	.	8b`\J	.
=79	=79	=79	=79	=79	=79	=79	=79	=79	=79	=79	=79	=79	=79	=79	=79	=79	=79
2.ryy	4.d\	.	4a/	.	4ccn\	.	.	.	.	4.D\yy	.	4.D\	.	4a/	.	4cc\	.
.	.	.	8g/	.	8b\	.	.	.	.	.	.	.	.	8g/	.	8b\	.
.	4.d\	.	8f#/L	.	(8a/L	.	.	.	.	4.d\yy	.	4.d\	.	(8f#/L	.	(8a/L	.
.	.	.	8g/	.	8b/)	.	.	.	.	.	.	.	.	8e/)	.	8g/)	.
.	.	.	8a/J	.	8ccn`/J	.	.	.	.	.	.	.	.	8f#`/J	.	8a`/J	.
=80	=80	=80	=80	=80	=80	=80	=80	=80	=80	=80	=80	=80	=80	=80	=80	=80	=80
!	!	!	!	!	!	!	!	!	!	!	!	!	!	!LO:LB:g=original	!	!	!
2.ryy	4.g\	.	4.g/	.	(8b\L	.	.	.	.	4.G\yy	.	4.G\	.	4.g/	.	(8b/L	.
.	.	.	.	.	8a\)	.	.	.	.	.	.	.	.	.	.	8a/)	.
.	.	.	.	.	8g`\J	.	.	.	.	.	.	.	.	.	.	8g`/J	.
.	4.g\	.	(8ee\L	.	(8gg\L	.	.	.	.	4.G\yy	.	4.G\	.	(8ee\L	.	(8gg\L	.
.	.	.	8dd\)	.	8ff#\)	.	.	.	.	.	.	.	.	8dd\)	.	8ff#\)	.
.	.	.	8cc'\J	.	8ee`\J	.	.	.	.	.	.	.	.	8ccn\J	.	8ee`\J	.
=81	=81	=81	=81	=81	=81	=81	=81	=81	=81	=81	=81	=81	=81	=81	=81	=81	=81
.	.	.	.	.	8qqee/	.	.	.	.	.	.	.	.	.	.	.	.
2.ryy	4.d\	.	4b\	.	4dd\	.	.	.	.	4.D\	.	4.D\	.	4b\	.	4dd\	.
.	.	.	8a\	.	8cc\	.	.	.	.	.	.	.	.	8a\	.	8cc\	.
.	8g\L	.	4g/	.	4b\	.	.	.	.	8G\L	.	8G\L	.	4g/	.	4b`\	.
.	8b\	.	.	.	.	.	.	.	.	8B\	.	8B\	.	.	.	.	.
.	8g\J	.	8r	.	8r	.	.	.	.	8G\J	.	8G\J	.	8r	.	8r	.
=82	=82	=82	=82	=82	=82	=82	=82	=82	=82	=82	=82	=82	=82	=82	=82	=82	=82
!	!	!	!LO:LB:g=original	!	!LO:LB:g=original	!	!LO:N:vis=00	!LO:N:vis=00	!	!	!	!	!	!	!	!	!
2.ryy	4.d\	.	(8a/L	.	(8cc\L	.	0.r	0.r	.	4.D\yy	.	4.D\	.	(8a/L	.	(8cc\L	.
.	.	.	8g/)	.	8b\)	.	.	.	.	.	.	.	.	8g/)	.	8b\)	.
.	.	.	8f#`/J	.	8a`\J	.	.	.	.	.	.	.	.	8f#X`/J	.	8a`\J	.
.	4.dd\	.	4f#/	.	4a/	.	.	.	.	4.d\yy	.	4.d\	.	4f#/	.	4a\	.
.	.	.	8f#/	.	8a/	.	.	.	.	.	.	.	.	8f#/	.	8a\	.
=83	=83	=83	=83	=83	=83	=83	=83	=83	=83	=83	=83	=83	=83	=83	=83	=83	=83
!	!	!	!	!	!	!	!	!	!	!	!	!	!	!	!	!LO:LB:g=original	!
.	.	.	16qqg/LL	.	16qqb/LL	.	.	.	.	.	.	.	.	16qqg/LL	.	16qqb/LL	.
.	.	.	16qqa/JJ	.	16qqcc/JJ	.	.	.	.	.	.	.	.	16qqa/JJ	.	16qqcc/JJ	.
2.ryy	4.g\	.	4b\	.	4dd\	.	.	.	.	4.G\yy	.	4.G\	.	4b\	.	4dd\	.
.	.	.	8a/	.	8cc\	.	.	.	.	.	.	.	.	8a\	.	8cc\	.
.	4.G/	.	(8g/L	.	(8b\L	.	.	.	.	4.GG/yy	.	4.GG/	.	8g/L	.	8b\L	.
.	.	.	8a/)	.	8cc\)	.	.	.	.	.	.	.	.	8a/	.	8cc\	.
.	.	.	8b`/J	.	8dd`\J	.	.	.	.	.	.	.	.	8b/J	.	8dd\J	.
=84	=84	=84	=84	=84	=84	=84	=84	=84	=84	=84	=84	=84	=84	=84	=84	=84	=84
2.ryy	4.c/	.	(8cc\L	.	(8ee\L	.	.	.	.	4.C/yy	.	4.C/	.	(8ccn\L	.	(8ee\L	.
.	.	.	8b\)	.	8dd\)	.	.	.	.	.	.	.	.	8b\	.	8dd\)	.
.	.	.	8a`\J	.	8cc`\J	.	.	.	.	.	.	.	.	8a\J)	.	8cc`\J	.
.	4.d/	.	(8a/L	.	(8cc\L	.	.	.	.	4.D/yy	.	4.D/	.	(8a/L	.	(8cc\L	.
.	.	.	8g/)	.	8b\)	.	.	.	.	.	.	.	.	8g/)	.	8b\)	.
.	.	.	8f#X`/J	.	8a`\J	.	.	.	.	.	.	.	.	8f#`/J	.	8a`\J	.
=85	=85	=85	=85	=85	=85	=85	=85	=85	=85	=85	=85	=85	=85	=85	=85	=85	=85
2.ryy	4.g\	.	(8g/L	.	(8b\L	.	.	.	.	4.G\yy	.	4.G\	.	(8g/L	.	(8b\L	.
.	.	.	8a/)	.	8cc\)	.	.	.	.	.	.	.	.	8a/	.	8cc\)	.
.	.	.	8b`/J	.	8dd`\J	.	.	.	.	.	.	.	.	8b/J)	.	8dd`\J	.
.	8g\L	.	4b/	.	4dd\	.	.	.	.	8G\Lyy	.	8G\L	.	4b`/	.	4dd\	.
.	8b\	.	.	.	.	.	.	.	.	8B\yy	.	8B\	.	.	.	.	.
.	8g\J	.	8r	.	8r	.	.	.	.	8G\Jyy	.	8G\J	.	8r	.	8r	.
=86	=86	=86	=86	=86	=86	=86	=86	=86	=86	=86	=86	=86	=86	=86	=86	=86	=86
!	!	!	!	!	!	!	!LO:N:vis=0	!LO:N:vis=0	!	!	!	!	!	!	!	!	!
2.ryy	4.d\	.	4a/	.	4cc\	.	1.r	1.r	.	4.D\yy	.	4.D\	.	4a/	.	4cc\	.
.	.	.	8g/	.	8b\	.	.	.	.	.	.	.	.	8g/	.	8b\	.
.	4.dd\	.	(8f#X/L	.	(8a/L	.	.	.	.	4.d\yy	.	4.d\	.	(8f#/L	.	(8a/L	.
.	.	.	8g/)	.	8b/)	.	.	.	.	.	.	.	.	8g/)	.	8b/)	.
.	.	.	8a`/J	.	8cc`/J	.	.	.	.	.	.	.	.	8a`/J	.	8cc`/J	.
=87	=87	=87	=87	=87	=87	=87	=87	=87	=87	=87	=87	=87	=87	=87	=87	=87	=87
!	!	!	!	!	!	!	!	!	!	!	!	!	!	!LO:LB:g=original	!	!	!
2.ryy	4.g\	.	4b/	.	4dd\	.	.	.	.	4.G\yy	.	4.G\	.	4b\	.	4dd\	.
.	.	.	8a/	.	8cc\	.	.	.	.	.	.	.	.	8a\	.	8cc\	.
.	4.G/	.	(8g/L	.	(8b\L	.	.	.	.	4.GG/yy	.	4.GG/	.	(8g/L	.	8b'\L	.
.	.	.	8a/)	.	8cc\)	.	.	.	.	.	.	.	.	8a/)	.	8cc'\	.
.	.	.	8b`/J	.	8dd`\J	.	.	.	.	.	.	.	.	8b`/J	.	8dd'\J	.
=88	=88	=88	=88	=88	=88	=88	=88	=88	=88	=88	=88	=88	=88	=88	=88	=88	=88
!	!LO:LB:g=original	!	!LO:LB:g=original	!	!LO:LB:g=original	!	!	!	!	!LO:LB:g=original	!	!LO:LB:g=original	!	!	!	!	!
2.ryy	4.c/	.	8a/L	.	8cc\L	.	2.r	2.r	.	4.C/yy	.	4.C/	.	(8a/L	.	8cc\L	.
.	.	.	8cc/	.	8ee\	.	.	.	.	.	.	.	.	8cc/)	.	8ee\	.
.	.	.	8b/J	.	8dd\J	.	.	.	.	.	.	.	.	8b`/J	.	8dd\J	.
.	.	.	.	.	8qqdd/	.	.	.	.	.	.	.	.	.	.	.	.
.	4.d/	.	8a/L	.	8cc\L	.	.	.	.	4.D/yy	.	4.D/	.	(8a/L	.	8cc\L	.
.	.	.	8g/	.	8b\	.	.	.	.	.	.	.	.	8g/)	.	8b\	.
.	.	.	8f#X/J	.	8a\J	.	.	.	.	.	.	.	.	8f#`/J	.	8a\J	.
=89	=89	=89	=89	=89	=89	=89	=89	=89	=89	=89	=89	=89	=89	=89	=89	=89	=89
*	*	*	*	*	*	*	*	*	*	*tremolo	*	*tremolo	*	*	*	*	*
!	!	!LO:HP:T=cre:	!	!LO:HP:t=cres	!	!LO:HP:t=cres	!	!	!LO:HP:t=cres	!	!LO:HP:t=cres	!	!LO:HP:t=cres	!	!	!	!
2.ryy	8g\L	<	2.g/	<	4.g/	<	[2.G/	[2.g\	<	8G\Lyy	<	8G\L	<	4.g/	.	4.g/	.
.	8g\	.	.	.	.	.	.	.	.	8G\yy	.	8G\	.	.	.	.	.
.	8g\J	.	.	.	.	.	.	.	.	8G\Jyy	.	8G\J	.	.	.	.	.
*	*tremolo	*	*	*	*	*	*	*	*	*	*	*	*	*	*	*	*
.	8g\L	.	.	.	4.b/	.	.	.	.	8G\Lyy	.	8G\L	.	4.r	.	4.r	.
.	8g\	.	.	.	.	.	.	.	.	8G\yy	.	8G\	.	.	.	.	.
.	8g\J	.	.	.	.	.	.	.	.	8G\Jyy	.	8G\J	.	.	.	.	.
=90	=90	=90	=90	=90	=90	=90	=90	=90	=90	=90	=90	=90	=90	=90	=90	=90	=90
!	!	!	!	!	!	!	!	!	!	!	!	!	!	!LO:TX:a:t=3	!	!LO:LB:g=original	!
!	!	!	!	!	!	!	!	!	!	!	!	!	!	!LO:N:vis=0	!	!LO:TX:a:t=3	!
!	!	!	!	!	!	!	!	!	!	!	!	!	!	!	!	!LO:N:vis=0	!
2.ryy	8g\L	.	4.a/	.	4.cc\	.	2.G/]	2.g\]	.	8G\Lyy	.	8G\L	.	1.r	.	1.r	.
.	8g\	.	.	.	.	.	.	.	.	8G\yy	.	8G\	.	.	.	.	.
.	8g\J	.	.	.	.	.	.	.	.	8G\Jyy	.	8G\J	.	.	.	.	.
.	8g\L	.	8f#X/L	.	8a/L	.	.	.	.	8G\Lyy	.	8G\L	.	.	.	.	.
.	8g\	.	8e/	.	8g/	.	.	.	.	8G\yy	.	8G\	.	.	.	.	.
.	8g\J	.	8f#/J	.	8a/J	.	.	.	.	8G\Jyy	.	8G\J	.	.	.	.	.
=91	=91	=91	=91	=91	=91	=91	=91	=91	=91	=91	=91	=91	=91	=91	=91	=91	=91
2.ryy	8g\L	.	4.g/	.	4.b\	.	2.G/	2.g\	.	8G\Lyy	.	8G\L	.	.	.	.	.
.	8g\	.	.	.	.	.	.	.	.	8G\yy	.	8G\	.	.	.	.	.
.	8g\J	.	.	.	.	.	.	.	.	8G\Jyy	.	8G\J	.	.	.	.	.
.	8g\L	.	4.b\	.	4.dd\	.	.	.	.	8G\Lyy	.	8G\L	.	.	.	.	.
.	8g\	.	.	.	.	.	.	.	.	8G\yy	.	8G\	.	.	.	.	.
.	8g\J	.	.	.	.	.	.	.	.	8G\Jyy	.	8G\J	.	.	.	.	.
=92	=92	=92	=92	=92	=92	=92	=92	=92	=92	=92	=92	=92	=92	=92	=92	=92	=92
2.ryy	8g\L	.	4.cc\	.	4.ee\	.	2.G/	2.g\	.	8G\Lyy	.	8G\L	.	2.r	.	2.r	.
.	8g\	.	.	.	.	.	.	.	.	8G\yy	.	8G\	.	.	.	.	.
.	8g\J	.	.	.	.	.	.	.	.	8G\Jyy	.	8G\J	.	.	.	.	.
.	8g\L	.	8a/L	.	(8cc\L	.	.	.	.	8G\Lyy	.	8G\L	.	.	.	.	.
.	8g\	.	8g/	.	8b\)	.	.	.	.	8G\yy	.	8G\	.	.	.	.	.
.	8g\J	.	8a/J	.	8cc`\J	.	.	.	.	8G\Jyy	.	8G\J	.	.	.	.	.
*	*Xtremolo	*	*	*	*	*	*	*	*	*Xtremolo	*	*Xtremolo	*	*	*	*	*
=93	=93	=93	=93	=93	=93	=93	=93	=93	=93	=93	=93	=93	=93	=93	=93	=93	=93
!	!LO:TX:a:t=problem:mixed beam	!LO:DY:t=for	!	!	!	!	!	!	!	!LO:TX:a:t=problem:mixed beam	!	!LO:TX:a:t=problem:mixed beam	!	!	!	!	!
2.ryy	8G/L	f	4.b\	.	4.b\	.	2.G/	2.g\	.	8GG/Lyy	f	8GG/L	f	4.r	.	4.r	.
.	8g\	.	.	.	.	.	.	.	.	8G\yy	.	8G\	.	.	.	.	.
.	8g\J	.	.	.	.	.	.	.	.	8G\Jyy	.	8G\J	.	.	.	.	.
*	*tremolo	*	*	*	*	*	*	*	*	*tremolo	*	*tremolo	*	*	*	*	*
.	8g\L	.	4.b\	.	4.gg\	f	.	.	.	8G\Lyy	.	8G\L	.	4.b\	.	4.gg\	.
.	8g\	.	.	.	.	.	.	.	.	8G\yy	.	8G\	.	.	.	.	.
.	8g\J	.	.	.	.	.	.	.	.	8G\Jyy	.	8G\J	.	.	.	.	.
=94	=94	=94	=94	=94	=94	=94	=94	=94	=94	=94	=94	=94	=94	=94	=94	=94	=94
2.ryy	8g\L	.	4.cc\	.	4.aa\	.	2.G/	2.g\	.	8G\Lyy	.	8G\L	.	4.cc\	.	4.aa\	.
.	8g\	.	.	.	.	.	.	.	.	8G\yy	.	8G\	.	.	.	.	.
.	8g\J	.	.	.	.	.	.	.	.	8G\Jyy	.	8G\J	.	.	.	.	.
.	8g\L	.	8a/L	.	(8ff#X\L	.	.	.	.	8G\Lyy	.	8G\L	.	4.a/	.	4.ff#X\	.
.	8g\	.	8g/	.	8ee\)	.	.	.	.	8G\yy	.	8G\	.	.	.	.	.
.	8g\J	.	8a/J	.	8ff#`\J	.	.	.	.	8G\Jyy	.	8G\J	.	.	.	.	.
*	*Xtremolo	*	*	*	*	*	*	*	*	*Xtremolo	*	*Xtremolo	*	*	*	*	*
=95	=95	=95	=95	=95	=95	=95	=95	=95	=95	=95	=95	=95	=95	=95	=95	=95	=95
!	!LO:TX:a:t=problem:mixed beam	!	!	!	!	!	!	!LO:LB:g=original	!	!LO:TX:a:t=problem:mixed eam	!	!LO:TX:a:t=problem:mixed eam	!	!	!	!	!
2.ryy	8G/L	.	4.b\	mf	4.gg\	.	2.G/	2.g\	.	8GG/Lyy	.	8GG/L	.	4.b\	.	4.gg\	.
.	8g\	.	.	.	.	.	.	.	.	8G\yy	.	8G\	.	.	.	.	.
.	8g\J	.	.	.	.	.	.	.	.	8G\Jyy	.	8G\J	.	.	.	.	.
*	*tremolo	*	*	*	*	*	*	*	*	*tremolo	*	*tremolo	*	*	*	*	*
.	8g\L	.	4.gg\	.	4.bb\	.	.	.	.	8G\Lyy	.	8G\L	.	4.gg\	.	4.bb\	.
.	8g\	.	.	.	.	.	.	.	.	8G\yy	.	8G\	.	.	.	.	.
.	8g\J	.	.	.	.	.	.	.	.	8G\Jyy	.	8G\J	.	.	.	.	.
=96	=96	=96	=96	=96	=96	=96	=96	=96	=96	=96	=96	=96	=96	=96	=96	=96	=96
!	!	!	!	!	!LO:LB:g=original	!	!LO:LB:g=original	!	!	!	!	!	!	!	!	!	!
2.ryy	8g\L	.	4.aa\	.	4.ccc\	.	2.G/	2.g\	.	8G\Lyy	.	8G\L	.	4.aa\	.	4.ccc\	.
.	8g\	.	.	.	.	.	.	.	.	8G\yy	.	8G\	.	.	.	.	.
.	8g\J	.	.	.	.	.	.	.	.	8G\Jyy	.	8G\J	.	.	.	.	.
.	8g\L	.	8ff#\L	.	(8aa\L	.	.	.	.	8G\Lyy	.	8G\L	.	8ff#\L	.	8aa\L	.
.	8g\	.	8ee\	.	8gg\)	.	.	.	.	8G\yy	.	8G\	.	8ee\	.	8gg\	.
.	8g\J	.	8ff#\J	.	8aa`\J	.	.	.	.	8G\Jyy	.	8G\J	.	8ff#\J	.	8aa\J	.
=97	=97	=97	=97	=97	=97	=97	=97	=97	=97	=97	=97	=97	=97	=97	=97	=97	=97
!	!	!LO:DY:t=for	!LO:LB:g=original	!LO:DY:t=fortif	!	!	!	!	!	!LO:LB:g=original	!	!LO:LB:g=original	!	!	!	!	!
2.ryy	4.g\	f	16gg\LL	ff	16gg\LL	.	4.G/	4.g\	.	4.G\yy	.	4.G\	.	4.gg\	.	4bb\	.
.	.	.	16bb\	.	16bb\	.	.	.	.	.	.	.	.	.	.	.	.
.	.	.	16bb\	.	16bb\	.	.	.	.	.	.	.	.	.	.	.	.
.	.	.	16bb\	.	16bb\	.	.	.	.	.	.	.	.	.	.	.	.
.	.	.	16bb\	.	16bb\	.	.	.	.	.	.	.	.	.	.	8r	.
.	.	.	16bb\JJ	.	16bb\JJ	.	.	.	.	.	.	.	.	.	.	.	.
.	4.r	.	16bb\LL	.	16bb\LL	.	4.r	4.r	.	4.ryy	.	4.r	.	4.r	.	4.r	.
.	.	.	16aa\	.	16aa\	.	.	.	.	.	.	.	.	.	.	.	.
.	.	.	16gg\	.	16gg\	.	.	.	.	.	.	.	.	.	.	.	.
.	.	.	16ff#\	.	16ff#\	.	.	.	.	.	.	.	.	.	.	.	.
.	.	.	16ee\	.	16ee\	.	.	.	.	.	.	.	.	.	.	.	.
.	.	.	16dd\JJ	.	16dd\JJ	.	.	.	.	.	.	.	.	.	.	.	.
=98	=98	=98	=98	=98	=98	=98	=98	=98	=98	=98	=98	=98	=98	=98	=98	=98	=98
!	!LO:LB:g=original	!	!	!	!	!	!	!	!	!	!	!	!	!	!	!	!
2.ryy	4.c\	.	16cc\LL	.	16cc\LL	.	2.r	2.r	.	4.C/yy	.	4.C/	.	2.r	.	2.r	.
.	.	.	16ee\	.	16ee\	.	.	.	.	.	.	.	.	.	.	.	.
.	.	.	16ee\	.	16ee\	.	.	.	.	.	.	.	.	.	.	.	.
.	.	.	16ee\	.	16ee\	.	.	.	.	.	.	.	.	.	.	.	.
.	.	.	16ee\	.	16ee\	.	.	.	.	.	.	.	.	.	.	.	.
.	.	.	16ee\JJ	.	16ee\JJ	.	.	.	.	.	.	.	.	.	.	.	.
.	4.r	.	16ee\LL	.	16ee\LL	.	.	.	.	4.ryy	.	4.r	.	.	.	.	.
.	.	.	16dd\	.	16dd\	.	.	.	.	.	.	.	.	.	.	.	.
.	.	.	16cc\	.	16cc\	.	.	.	.	.	.	.	.	.	.	.	.
.	.	.	16b\	.	16b\	.	.	.	.	.	.	.	.	.	.	.	.
.	.	.	16a\	.	16a\	.	.	.	.	.	.	.	.	.	.	.	.
.	.	.	16g\JJ	.	16g\JJ	.	.	.	.	.	.	.	.	.	.	.	.
=99	=99	=99	=99	=99	=99	=99	=99	=99	=99	=99	=99	=99	=99	=99	=99	=99	=99
2.ryy	4.d\	.	16f#X/LL	.	16f#X/LL	.	2.d/	2.a\	.	4.D\yy	.	4.D\	.	2.ccn\	.	2.aa\	.
.	.	.	16a/	.	16a/	.	.	.	.	.	.	.	.	.	.	.	.
.	.	.	16a/	.	16a/	.	.	.	.	.	.	.	.	.	.	.	.
.	.	.	16a/	.	16a/	.	.	.	.	.	.	.	.	.	.	.	.
.	.	.	16a/	.	16a/	.	.	.	.	.	.	.	.	.	.	.	.
.	.	.	16a/JJ	.	16a/JJ	.	.	.	.	.	.	.	.	.	.	.	.
.	4.f#\	.	16a/LL	.	16a/LL	.	.	.	.	4.F#\yy	.	4.F#\	.	.	.	.	.
.	.	.	16g/	.	16g/	.	.	.	.	.	.	.	.	.	.	.	.
.	.	.	16f#/	.	16f#/	.	.	.	.	.	.	.	.	.	.	.	.
.	.	.	16e/	.	16e/	.	.	.	.	.	.	.	.	.	.	.	.
.	.	.	16d/	.	16d/	.	.	.	.	.	.	.	.	.	.	.	.
.	.	.	16c/JJ	.	16c/JJ	.	.	.	.	.	.	.	.	.	.	.	.
=100	=100	=100	=100	=100	=100	=100	=100	=100	=100	=100	=100	=100	=100	=100	=100	=100	=100
!	!	!	!	!	!LO:LB:g=original	!	!	!	!	!	!	!	!	!	!	!	!
2.ryy	4.g\	.	16B/LL	.	8B/L	.	4.g\	4.b\	.	4.G\yy	.	4.G\	.	4.b\	.	4.gg\	.
.	.	.	16g/	.	.	.	.	.	.	.	.	.	.	.	.	.	.
.	.	.	16g/	.	8d/	.	.	.	.	.	.	.	.	.	.	.	.
.	.	.	16g/	.	.	.	.	.	.	.	.	.	.	.	.	.	.
.	.	.	16g/	.	8g/J	.	.	.	.	.	.	.	.	.	.	.	.
.	.	.	16g/JJ	.	.	.	.	.	.	.	.	.	.	.	.	.	.
*	*	*	*tremolo	*	*	*	*	*	*	*	*	*	*	*	*	*	*
.	8r	.	16g/LL	.	8b\L	.	4.r	4.r	.	4.ryy	.	4.r	.	4.r	.	4.r	.
.	.	.	16g/	.	.	.	.	.	.	.	.	.	.	.	.	.	.
.	8r	.	16g/	.	8dd\	.	.	.	.	.	.	.	.	.	.	.	.
.	.	.	16g/	.	.	.	.	.	.	.	.	.	.	.	.	.	.
.	8r	.	16g/	.	8gg\J	.	.	.	.	.	.	.	.	.	.	.	.
.	.	.	16g/JJ	.	.	.	.	.	.	.	.	.	.	.	.	.	.
=101	=101	=101	=101	=101	=101	=101	=101	=101	=101	=101	=101	=101	=101	=101	=101	=101	=101
!	!	!	!	!	!	!	!	!	!	!	!	!	!	!LO:LB:g=original	!	!LO:LB:g=original	!
2.ryy	8d\L	.	16g/LL	.	4.d/	.	4.g\	4.b\	.	8D\Lyy	.	8D\L	.	4.gg\	.	4.bb\	.
.	.	.	16g/	.	.	.	.	.	.	.	.	.	.	.	.	.	.
.	8d\	.	16g/	.	.	.	.	.	.	8D\yy	.	8D\	.	.	.	.	.
.	.	.	16g/	.	.	.	.	.	.	.	.	.	.	.	.	.	.
.	8d\J	.	16g/	.	.	.	.	.	.	8D\Jyy	.	8D\J	.	.	.	.	.
.	.	.	16g/JJ	.	.	.	.	.	.	.	.	.	.	.	.	.	.
!	!	!	!	!	!LO:N:vis=4	!	!	!	!	!	!	!	!	!	!	!	!
!	!	!	!	!	!LO:TX:a:t=t	!	!	!	!	!	!	!	!	!	!	!	!
.	8D/L	.	16f#X/LL	.	4.a/	.	4.d/	4.a\	.	8DD/Lyy	.	8DD/L	.	4.ff#\	.	4.aa\	.
.	.	.	16f#/	.	.	.	.	.	.	.	.	.	.	.	.	.	.
.	8D/	.	16f#/	.	.	.	.	.	.	8DD/yy	.	8DD/	.	.	.	.	.
.	.	.	16f#/	.	.	.	.	.	.	.	.	.	.	.	.	.	.
.	8D/J	.	16f#/	.	.	.	.	.	.	8DD/Jyy	.	8DD/J	.	.	.	.	.
.	.	.	16f#/JJ	.	.	.	.	.	.	.	.	.	.	.	.	.	.
*	*Xtremolo	*	*Xtremolo	*	*	*	*	*	*	*Xtremolo	*	*Xtremolo	*	*	*	*	*
=102	=102	=102	=102	=102	=102	=102	=102	=102	=102	=102	=102	=102	=102	=102	=102	=102	=102
!	!	!	!LO:LB:g=original	!	!	!	!	!	!	!	!	!	!	!	!	!	!
2.ryy	8G/L	.	16gg\LL	.	16gg\LL	.	4.G/	4.g\	.	8GG/Lyy	.	8GG/L	.	4.gg\	.	4.gg\	.
.	.	.	16bb\	.	16bb\	.	.	.	.	.	.	.	.	.	.	.	.
.	8G/	.	16bb\	.	16bb\	.	.	.	.	8GG/yy	.	8GG/	.	.	.	.	.
.	.	.	16bb\	.	16bb\	.	.	.	.	.	.	.	.	.	.	.	.
.	8G/J	.	16bb\	.	16bb\	.	.	.	.	8GG/Jyy	.	8GG/J	.	.	.	.	.
.	.	.	16bb\JJ	.	16bb\JJ	.	.	.	.	.	.	.	.	.	.	.	.
.	8b\L	.	16bb\LL	.	16bb\LL	.	4.r	4.r	.	8B\Lyy	.	8B\L	.	4.r	.	4.r	.
.	.	.	16aa\	.	16aa\	.	.	.	.	.	.	.	.	.	.	.	.
.	8b\	.	16gg\	.	16gg\	.	.	.	.	8B\yy	.	8B\	.	.	.	.	.
.	.	.	16ff#\	.	16ff#\	.	.	.	.	.	.	.	.	.	.	.	.
.	8b\J	.	16ee\	.	16ee\	.	.	.	.	8B\Jyy	.	8B\J	.	.	.	.	.
.	.	.	16dd\JJ	.	16dd\JJ	.	.	.	.	.	.	.	.	.	.	.	.
=103	=103	=103	=103	=103	=103	=103	=103	=103	=103	=103	=103	=103	=103	=103	=103	=103	=103
*	*tremolo	*	*	*	*	*	*	*	*	*tremolo	*	*tremolo	*	*	*	*	*
!	!	!	!	!	!	!	!	!LO:TX:a:t=1	!	!	!	!	!	!LO:TX:a:t=1	!	!LO:LB:g=original	!
2.ryy	8ee\L	.	16cc\LL	.	16cc\LL	.	2.r	2.r	.	8c\Lyy	.	8c\L	.	2.r	.	2.r	.
.	.	.	16ee\	.	16ee\	.	.	.	.	.	.	.	.	.	.	.	.
.	8ee\	.	16ee\	.	16ee\	.	.	.	.	8c\yy	.	8c\	.	.	.	.	.
.	.	.	16ee\	.	16ee\	.	.	.	.	.	.	.	.	.	.	.	.
.	8ee\	.	16ee\	.	16ee\	.	.	.	.	8c\Jyy	.	8c\J	.	.	.	.	.
.	.	.	16ee\JJ	.	16ee\JJ	.	.	.	.	.	.	.	.	.	.	.	.
.	8ee\	.	16ee\LL	.	16ee\LL	.	.	.	.	8c\Lyy	.	8c\L	.	.	.	.	.
.	.	.	16dd\	.	16dd\	.	.	.	.	.	.	.	.	.	.	.	.
.	8ee\	.	16cc\	.	16cc\	.	.	.	.	8c\yy	.	8c\	.	.	.	.	.
.	.	.	16b\	.	16b\	.	.	.	.	.	.	.	.	.	.	.	.
.	8ee\J	.	16a\	.	16a\	.	.	.	.	8c\Jyy	.	8c\J	.	.	.	.	.
.	.	.	16g\JJ	.	16g\JJ	.	.	.	.	.	.	.	.	.	.	.	.
=104	=104	=104	=104	=104	=104	=104	=104	=104	=104	=104	=104	=104	=104	=104	=104	=104	=104
!	!	!	!	!	!	!	!	!LO:LB:g=original	!	!	!	!	!	!	!	!	!
2.ryy	8dd\L	.	16f#X/LL	.	16f#X/LL	.	2.d/	2.a\	.	8d\Lyy	.	8d\L	.	2.cc\	.	2.aa\	.
.	.	.	16a/	.	16a/	.	.	.	.	.	.	.	.	.	.	.	.
.	8dd\	.	16a/	.	16a/	.	.	.	.	8d\yy	.	8d\	.	.	.	.	.
.	.	.	16a/	.	16a/	.	.	.	.	.	.	.	.	.	.	.	.
.	8dd\J	.	16a/	.	16a/	.	.	.	.	8d\Jyy	.	8d\J	.	.	.	.	.
.	.	.	16a/JJ	.	16a/JJ	.	.	.	.	.	.	.	.	.	.	.	.
.	8f#X\L	.	16a/LL	.	16a/LL	.	.	.	.	8F#X\Lyy	.	8F#X\L	.	.	.	.	.
.	.	.	16g/	.	16g/	.	.	.	.	.	.	.	.	.	.	.	.
.	8f#X\	.	16f#/	.	16f#/	.	.	.	.	8F#\yy	.	8F#\	.	.	.	.	.
.	.	.	16e/	.	16e/	.	.	.	.	.	.	.	.	.	.	.	.
.	8f#X\J	.	16d/	.	16d/	.	.	.	.	8F#\Jyy	.	8F#\J	.	.	.	.	.
.	.	.	16c/JJ	.	16c/JJ	.	.	.	.	.	.	.	.	.	.	.	.
=105	=105	=105	=105	=105	=105	=105	=105	=105	=105	=105	=105	=105	=105	=105	=105	=105	=105
*	*	*	*tremolo	*	*	*	*	*	*	*	*	*	*	*	*	*	*
!	!	!	!	!	!LO:LB:g=original	!	!LO:LB:g=original	!	!	!LO:LB:g=original	!	!LO:LB:g=original	!	!	!	!	!
2.ryy	4.g\	.	16g/LL	.	8B/L	.	2.g\	2.b\	.	4.G\yy	.	4.G\	.	2.b\	.	2.gg\	.
.	.	.	16g/	.	.	.	.	.	.	.	.	.	.	.	.	.	.
.	.	.	16g/	.	8d/	.	.	.	.	.	.	.	.	.	.	.	.
.	.	.	16g/	.	.	.	.	.	.	.	.	.	.	.	.	.	.
.	.	.	16g/	.	8g/J	.	.	.	.	.	.	.	.	.	.	.	.
.	.	.	16g/	.	.	.	.	.	.	.	.	.	.	.	.	.	.
.	8g\L	.	16g/	.	8b\L	.	.	.	.	8G\Lyy	.	8G\L	.	.	.	.	.
.	.	.	16g/	.	.	.	.	.	.	.	.	.	.	.	.	.	.
.	8d\	.	16g/	.	8dd\	.	.	.	.	8D\yy	.	8D\	.	.	.	.	.
.	.	.	16g/	.	.	.	.	.	.	.	.	.	.	.	.	.	.
.	8B\J	.	16g/	.	8gg\J	.	.	.	.	8BB\Jyy	.	8BB\J	.	.	.	.	.
.	.	.	16g/JJ	.	.	.	.	.	.	.	.	.	.	.	.	.	.
=106	=106	=106	=106	=106	=106	=106	=106	=106	=106	=106	=106	=106	=106	=106	=106	=106	=106
2.ryy	8d\L	.	16g/LL	.	4.dd\	.	4.g\	4.b\	.	8D\Lyy	.	8D\L	.	4.gg\	.	4.bb\	.
.	.	.	16g/	.	.	.	.	.	.	.	.	.	.	.	.	.	.
.	8d\	.	16g/	.	.	.	.	.	.	8D\yy	.	8D\	.	.	.	.	.
.	.	.	16g/	.	.	.	.	.	.	.	.	.	.	.	.	.	.
.	8d\	.	16g/	.	.	.	.	.	.	8D\Jyy	.	8D\J	.	.	.	.	.
.	.	.	16g/JJ	.	.	.	.	.	.	.	.	.	.	.	.	.	.
!	!	!	!	!	!LO:TX:a:t=t	!	!	!	!	!	!	!	!	!	!	!	!
.	8d\	.	16f#/LL	.	4.aa\	.	4.d/	4.a\	.	8DD/Lyy	.	8DD/L	.	4.ff#\	.	4.aa\	.
.	.	.	16f#/	.	.	.	.	.	.	.	.	.	.	.	.	.	.
.	8d\	.	16f#/	.	.	.	.	.	.	8DD/yy	.	8DD/	.	.	.	.	.
.	.	.	16f#/	.	.	.	.	.	.	.	.	.	.	.	.	.	.
.	8d\J	.	16f#/	.	.	.	.	.	.	8DD/Jyy	.	8DD/J	.	.	.	.	.
.	.	.	16f#/JJ	.	.	.	.	.	.	.	.	.	.	.	.	.	.
*	*	*	*Xtremolo	*	*	*	*	*	*	*	*	*	*	*	*	*	*
=107	=107	=107	=107	=107	=107	=107	=107	=107	=107	=107	=107	=107	=107	=107	=107	=107	=107
2.ryy	4.G/	.	4.G/ 4.d 4.b	.	4.d/ 4.b 4.gg	.	8g\L	8g\L	.	4.GG/yy	.	4.GG/	.	8gg\L	.	8gg\L	.
.	.	.	.	.	.	.	16b\L	16dd\L	.	.	.	.	.	16b\L	.	16dd\L	.
.	.	.	.	.	.	.	16cc\J	16ee\J	.	.	.	.	.	16cc\J	.	16ee\J	.
.	.	.	.	.	.	.	8b\J	8dd\J	.	.	.	.	.	8b\J	.	8dd\J	.
.	8r	.	8r	.	8r	.	8a\L	8cc\L	.	8ryy	.	8r	.	8a/L	.	8cc\L	.
.	8r	.	8r	.	8r	.	8g\	8b\	.	8ryy	.	8r	.	8g/	.	8b\	.
.	8d\	.	8d/ 8a	.	8d/ 8a 8ff#	.	8d\J	8a\J	.	8D\yy	.	8D\	.	8f#X/J	.	8a\J	.
=108	=108	=108	=108	=108	=108	=108	=108	=108	=108	=108	=108	=108	=108	=108	=108	=108	=108
!	!	!	!LO:LB:g=original	!	!	!	!LO:TX:a:t=problem:mixed beam	!	!	!	!	!	!	!	!	!	!
2.ryy	4.g\	.	4.G/ 4.d 4.b	.	4.d/ 4.b 4.gg	.	8G/L	8g\L	.	4.G\yy	.	4.G\	.	8g/L	.	8b\L	.
.	.	.	.	.	.	.	16b\L	16dd\L	.	.	.	.	.	16b/L	.	16dd\L	.
.	.	.	.	.	.	.	16cc\J	16ee\J	.	.	.	.	.	16cc/J	.	16ee\J	.
.	.	.	.	.	.	.	8b\J	8dd\J	.	.	.	.	.	8b/J	.	8dd\J	.
.	8r	.	8r	.	8r	.	8a\L	8cc\L	.	8ryy	.	8r	.	8a/L	.	8cc\L	.
.	8r	.	8r	.	8r	.	8g\	8b\	.	8ryy	.	8r	.	8g/	.	8b\	.
!	!LO:TX:a:t=problem:potem jeden niewyraźny takt	!	!	!	!	!	!	!	!	!	!	!	!	!	!	!	!
.	8d\	.	8d/ 8a	.	8d/ 8a 8ff#X	.	8d\J	8a\J	.	8D\yy	.	8D\	.	8f#X/J	.	8a\J	.
=109	=109	=109	=109	=109	=109	=109	=109	=109	=109	=109	=109	=109	=109	=109	=109	=109	=109
!	!	!	!	!	!	!	!	!	!	!	!	!	!	!	!	!LO:LB:g=original	!
2.ryy	8G/L	.	8G/L 8d 8b	.	8d/L 8b 8gg	.	8G/L	8g\L	.	8GG/Lyy	.	8GG/L	.	8g/L	.	8b\L	.
.	8B/	.	8G/ 8d 8b	.	8d/ 8b 8gg	.	8G/	8g\	.	8BB/yy	.	8BB/	.	8b/	.	8gg\	.
.	8d/J	.	8G/J 8d 8b	.	8d/J 8b 8gg	.	8G/J	8g\J	.	8D/Jyy	.	8D/J	.	8b/J	.	8gg\J	.
!	!LO:N:vis=4	!	!LO:TX:a:t=Fine	!	!LO:TX:a:t=Fine	!	!	!LO:TX:a:t=Fine	!	!LO:TX:a:t=Fine	!	!LO:TX:a:t=Fine	!	!	!	!	!
!	!LO:TX:a:t=Fine	!	!	!	!	!	!	!	!	!	!	!	!	!	!	!	!
.	4.g\	.	4.G/ 4.d 4.b	.	4.d/ 4.b 4.gg	.	4.G/	4.g\	.	4.G\yy	.	4.G\	.	4.b/	.	4.gg\	.
=:|!	=:|!	=:|!	=:|!	=:|!	=:|!	=:|!	=:|!	=:|!	=:|!	=:|!	=:|!	=:|!	=:|!	=:|!	=:|!	=:|!	=:|!
*-	*-	*-	*-	*-	*-	*-	*-	*-	*-	*-	*-	*-	*-	*-	*-	*-	*-
!!!system-decoration: [(g1)][(g2)][(g3)]{g4}
!!!ENC:Anna Matuszewska
!!!END: 2020-06-03
